(Generated with: DXF2GCODE, Version: Py3.6.9 PyQt5.10.1, Date: $Date: Mon Sep 25 13:57:11 2017 +0200 $)
(Created from file: /home/benico/ArcelorMittal/Designs_Benico/Benico_Coffee-Grinder/09-2020-03_B-Grind_Mk-IX.rev03/LaserCutting_pdf-dxf-GCode/mnf_asmsub_20_Case_Stainless.dxf)
(Output format description: G-CODE for LinuxCNC)
(Time: Thu Aug 13 21:42:01 2020)
G21 (Units in millimeters)
G90 (Absolute programming)
G64 (Default cutting) G17 (XY plane) G40 (Cancel radius comp.) G49 (Cancel length comp.)
G0 Z  15.000 

(*** LAYER: 0 ***)
T1 M6
S6000

(* SHAPE Nr: 0 *)
G0 X 527.350 Y 170.464
M3 M8
G0 Z   3.000 
F150
G1 Z  -1.500
F400
G3 X 525.643 Y 171.171 I  -1.000 J   0.000
F150
G1 Z  -3.000
F400
G2 X 534.836 Y 177.535 I   4.596 J   3.182
G2 X 525.643 Y 171.171 I  -4.596 J  -3.182
G2 X 527.350 Y 170.464 I   0.707 J  -0.707
F150
G1 Z   3.000
G0 Z  15.000 
M9 M5

(* SHAPE Nr: 1 *)
G0 X 499.066 Y 121.474
M3 M8
G0 Z   3.000 
G1 Z  -1.500
F400
G3 X 497.359 Y 122.181 I  -1.000 J   0.000
F150
G1 Z  -3.000
F400
G2 X 506.551 Y 128.545 I   4.596 J   3.182
G2 X 497.359 Y 122.181 I  -4.596 J  -3.182
G2 X 499.066 Y 121.474 I   0.707 J  -0.707
F150
G1 Z   3.000
G0 Z  15.000 
M9 M5

(* SHAPE Nr: 2 *)
G0 X 488.713 Y 160.111
M3 M8
G0 Z   3.000 
G1 Z  -1.500
F400
G3 X 487.006 Y 160.818 I  -1.000 J   0.000
F150
G1 Z  -3.000
F400
G2 X 496.199 Y 167.182 I   4.596 J   3.182
G2 X 487.006 Y 160.818 I  -4.596 J  -3.182
G2 X 488.713 Y 160.111 I   0.707 J  -0.707
F150
G1 Z   3.000
G0 Z  15.000 
M9 M5

(* SHAPE Nr: 3 *)
G0 X 430.766 Y 105.464
M3 M8
G0 Z   3.000 
G1 Z  -1.500
F400
G3 X 429.059 Y 106.172 I  -1.000 J   0.000
F150
G1 Z  -3.000
F400
G2 X 437.544 Y 111.828 I   4.243 J   2.828
G2 X 429.059 Y 106.172 I  -4.243 J  -2.828
G2 X 430.766 Y 105.464 I   0.707 J  -0.707
F150
G1 Z   3.000
G0 Z  15.000 
M9 M5

(* SHAPE Nr: 4 *)
G0 X 430.766 Y  55.464
M3 M8
G0 Z   3.000 
G1 Z  -1.500
F400
G3 X 429.059 Y  56.172 I  -1.000 J   0.000
F150
G1 Z  -3.000
F400
G2 X 437.544 Y  61.828 I   4.243 J   2.828
G2 X 429.059 Y  56.172 I  -4.243 J  -2.828
G2 X 430.766 Y  55.464 I   0.707 J  -0.707
F150
G1 Z   3.000
G0 Z  15.000 
M9 M5

(* SHAPE Nr: 5 *)
G0 X 704.067 Y 340.464
M3 M8
G0 Z   3.000 
G1 Z  -1.500
F400
G3 X 702.360 Y 341.172 I  -1.000 J   0.000
F150
G1 Z  -3.000
F400
G2 X 710.845 Y 346.828 I   4.243 J   2.828
G2 X 702.360 Y 341.172 I  -4.243 J  -2.828
G2 X 704.067 Y 340.464 I   0.707 J  -0.707
F150
G1 Z   3.000
G0 Z  15.000 
M9 M5

(* SHAPE Nr: 6 *)
G0 X 764.067 Y 340.464
M3 M8
G0 Z   3.000 
G1 Z  -1.500
F400
G3 X 762.360 Y 341.172 I  -1.000 J   0.000
F150
G1 Z  -3.000
F400
G2 X 770.845 Y 346.828 I   4.243 J   2.828
G2 X 762.360 Y 341.172 I  -4.243 J  -2.828
G2 X 764.067 Y 340.464 I   0.707 J  -0.707
F150
G1 Z   3.000
G0 Z  15.000 
M9 M5

(* SHAPE Nr: 7 *)
G0 X 614.067 Y 217.464
M3 M8
G0 Z   3.000 
G1 Z  -1.500
F400
G3 X 612.360 Y 218.172 I  -1.000 J   0.000
F150
G1 Z  -3.000
F400
G2 X 620.845 Y 223.828 I   4.243 J   2.828
G2 X 612.360 Y 218.172 I  -4.243 J  -2.828
G2 X 614.067 Y 217.464 I   0.707 J  -0.707
F150
G1 Z   3.000
G0 Z  15.000 
M9 M5

(* SHAPE Nr: 8 *)
G0 X 524.067 Y 217.464
M3 M8
G0 Z   3.000 
G1 Z  -1.500
F400
G3 X 522.360 Y 218.172 I  -1.000 J   0.000
F150
G1 Z  -3.000
F400
G2 X 530.845 Y 223.828 I   4.243 J   2.828
G2 X 522.360 Y 218.172 I  -4.243 J  -2.828
G2 X 524.067 Y 217.464 I   0.707 J  -0.707
F150
G1 Z   3.000
G0 Z  15.000 
M9 M5

(* SHAPE Nr: 9 *)
G0 X 465.766 Y  20.464
M3 M8
G0 Z   3.000 
G1 Z  -1.500
F400
G3 X 464.059 Y  21.172 I  -1.000 J   0.000
F150
G1 Z  -3.000
F400
G2 X 472.544 Y  26.828 I   4.243 J   2.828
G2 X 464.059 Y  21.172 I  -4.243 J  -2.828
G2 X 465.766 Y  20.464 I   0.707 J  -0.707
F150
G1 Z   3.000
G0 Z  15.000 
M9 M5

(* SHAPE Nr: 10 *)
G0 X 565.766 Y  20.464
M3 M8
G0 Z   3.000 
G1 Z  -1.500
F400
G3 X 564.059 Y  21.172 I  -1.000 J   0.000
F150
G1 Z  -3.000
F400
G2 X 572.544 Y  26.828 I   4.243 J   2.828
G2 X 564.059 Y  21.172 I  -4.243 J  -2.828
G2 X 565.766 Y  20.464 I   0.707 J  -0.707
F150
G1 Z   3.000
G0 Z  15.000 
M9 M5

(* SHAPE Nr: 11 *)
G0 X 665.766 Y  20.464
M3 M8
G0 Z   3.000 
G1 Z  -1.500
F400
G3 X 664.059 Y  21.172 I  -1.000 J   0.000
F150
G1 Z  -3.000
F400
G2 X 672.544 Y  26.828 I   4.243 J   2.828
G2 X 664.059 Y  21.172 I  -4.243 J  -2.828
G2 X 665.766 Y  20.464 I   0.707 J  -0.707
F150
G1 Z   3.000
G0 Z  15.000 
M9 M5

(* SHAPE Nr: 12 *)
G0 X 765.766 Y  20.464
M3 M8
G0 Z   3.000 
G1 Z  -1.500
F400
G3 X 764.059 Y  21.172 I  -1.000 J   0.000
F150
G1 Z  -3.000
F400
G2 X 772.544 Y  26.828 I   4.243 J   2.828
G2 X 764.059 Y  21.172 I  -4.243 J  -2.828
G2 X 765.766 Y  20.464 I   0.707 J  -0.707
F150
G1 Z   3.000
G0 Z  15.000 
M9 M5

(* SHAPE Nr: 13 *)
G0 X 820.067 Y 305.464
M3 M8
G0 Z   3.000 
G1 Z  -1.500
F400
G3 X 818.360 Y 306.172 I  -1.000 J   0.000
F150
G1 Z  -3.000
F400
G2 X 826.845 Y 311.828 I   4.243 J   2.828
G2 X 818.360 Y 306.172 I  -4.243 J  -2.828
G2 X 820.067 Y 305.464 I   0.707 J  -0.707
F150
G1 Z   3.000
G0 Z  15.000 
M9 M5

(* SHAPE Nr: 14 *)
G0 X 820.067 Y  55.464
M3 M8
G0 Z   3.000 
G1 Z  -1.500
F400
G3 X 818.360 Y  56.172 I  -1.000 J   0.000
F150
G1 Z  -3.000
F400
G2 X 826.845 Y  61.828 I   4.243 J   2.828
G2 X 818.360 Y  56.172 I  -4.243 J  -2.828
G2 X 820.067 Y  55.464 I   0.707 J  -0.707
F150
G1 Z   3.000
G0 Z  15.000 
M9 M5

(* SHAPE Nr: 15 *)
G0 X 820.067 Y 180.464
M3 M8
G0 Z   3.000 
G1 Z  -1.500
F400
G3 X 818.360 Y 181.172 I  -1.000 J   0.000
F150
G1 Z  -3.000
F400
G2 X 826.845 Y 186.828 I   4.243 J   2.828
G2 X 818.360 Y 181.172 I  -4.243 J  -2.828
G2 X 820.067 Y 180.464 I   0.707 J  -0.707
F150
G1 Z   3.000
G0 Z  15.000 
M9 M5

(* SHAPE Nr: 16 *)
G0 X 669.067 Y 305.464
M3 M8
G0 Z   3.000 
G1 Z  -1.500
F400
G3 X 667.360 Y 306.172 I  -1.000 J   0.000
F150
G1 Z  -3.000
F400
G2 X 675.845 Y 311.828 I   4.243 J   2.828
G2 X 667.360 Y 306.172 I  -4.243 J  -2.828
G2 X 669.067 Y 305.464 I   0.707 J  -0.707
F150
G1 Z   3.000
G0 Z  15.000 
M9 M5

(* SHAPE Nr: 17 *)
G0 X 669.067 Y 260.464
M3 M8
G0 Z   3.000 
G1 Z  -1.500
F400
G3 X 667.360 Y 261.172 I  -1.000 J   0.000
F150
G1 Z  -3.000
F400
G2 X 675.845 Y 266.828 I   4.243 J   2.828
G2 X 667.360 Y 261.172 I  -4.243 J  -2.828
G2 X 669.067 Y 260.464 I   0.707 J  -0.707
F150
G1 Z   3.000
G0 Z  15.000 
M9 M5

(* SHAPE Nr: 18 *)
G0 X1179.835 Y  73.952
M3 M8
G0 Z   3.000 
G1 Z  -1.500
F400
G3 X1178.128 Y  74.659 I  -1.000 J  -0.000
F150
G1 Z  -3.000
F400
G2 X1183.077 Y  76.780 I   2.475 J   1.061
G2 X1178.128 Y  74.659 I  -2.475 J  -1.061
G2 X1179.835 Y  73.952 I   0.707 J  -0.707
F150
G1 Z   3.000
G0 Z  15.000 
M9 M5

(* SHAPE Nr: 19 *)
G0 X1149.835 Y  73.952
M3 M8
G0 Z   3.000 
G1 Z  -1.500
F400
G3 X1148.128 Y  74.659 I  -1.000 J  -0.000
F150
G1 Z  -3.000
F400
G2 X1153.077 Y  76.780 I   2.475 J   1.061
G2 X1148.128 Y  74.659 I  -2.475 J  -1.061
G2 X1149.835 Y  73.952 I   0.707 J  -0.707
F150
G1 Z   3.000
G0 Z  15.000 
M9 M5

(* SHAPE Nr: 20 *)
G0 X1149.835 Y  91.952
M3 M8
G0 Z   3.000 
G1 Z  -1.500
F400
G3 X1148.128 Y  92.659 I  -1.000 J  -0.000
F150
G1 Z  -3.000
F400
G2 X1153.077 Y  94.780 I   2.475 J   1.061
G2 X1148.128 Y  92.659 I  -2.475 J  -1.061
G2 X1149.835 Y  91.952 I   0.707 J  -0.707
F150
G1 Z   3.000
G0 Z  15.000 
M9 M5

(* SHAPE Nr: 21 *)
G0 X1179.835 Y  91.952
M3 M8
G0 Z   3.000 
G1 Z  -1.500
F400
G3 X1178.128 Y  92.659 I  -1.000 J  -0.000
F150
G1 Z  -3.000
F400
G2 X1183.077 Y  94.780 I   2.475 J   1.061
G2 X1178.128 Y  92.659 I  -2.475 J  -1.061
G2 X1179.835 Y  91.952 I   0.707 J  -0.707
F150
G1 Z   3.000
G0 Z  15.000 
M9 M5

(* SHAPE Nr: 22 *)
G0 X1086.774 Y 166.611
M3 M8
G0 Z   3.000 
G1 Z  -1.500
F400
G3 X1085.067 Y 167.318 I  -1.000 J  -0.000
F150
G1 Z  -3.000
F400
G2 X1092.138 Y 171.560 I   3.536 J   2.121
G2 X1085.067 Y 167.318 I  -3.536 J  -2.121
G2 X1086.774 Y 166.611 I   0.707 J  -0.707
F150
G1 Z   3.000
G0 Z  15.000 
M9 M5

(* SHAPE Nr: 23 *)
G0 X1036.774 Y 166.611
M3 M8
G0 Z   3.000 
G1 Z  -1.500
F400
G3 X1035.067 Y 167.318 I  -1.000 J  -0.000
F150
G1 Z  -3.000
F400
G2 X1042.138 Y 171.560 I   3.536 J   2.121
G2 X1035.067 Y 167.318 I  -3.536 J  -2.121
G2 X1036.774 Y 166.611 I   0.707 J  -0.707
F150
G1 Z   3.000
G0 Z  15.000 
M9 M5

(* SHAPE Nr: 24 *)
G0 X1086.774 Y 292.050
M3 M8
G0 Z   3.000 
G1 Z  -1.500
F400
G3 X1085.067 Y 292.757 I  -1.000 J  -0.000
F150
G1 Z  -3.000
F400
G2 X1092.138 Y 296.999 I   3.536 J   2.121
G2 X1085.067 Y 292.757 I  -3.536 J  -2.121
G2 X1086.774 Y 292.050 I   0.707 J  -0.707
F150
G1 Z   3.000
G0 Z  15.000 
M9 M5

(* SHAPE Nr: 25 *)
G0 X1036.774 Y 292.050
M3 M8
G0 Z   3.000 
G1 Z  -1.500
F400
G3 X1035.067 Y 292.757 I  -1.000 J   0.000
F150
G1 Z  -3.000
F400
G2 X1042.138 Y 296.999 I   3.536 J   2.121
G2 X1035.067 Y 292.757 I  -3.536 J  -2.121
G2 X1036.774 Y 292.050 I   0.707 J  -0.707
F150
G1 Z   3.000
G0 Z  15.000 
M9 M5

(* SHAPE Nr: 26 *)
G0 X 507.473 Y 366.611
M3 M8
G0 Z   3.000 
G1 Z  -1.500
F400
G3 X 505.766 Y 367.318 I  -1.000 J   0.000
F150
G1 Z  -3.000
F400
G2 X 512.837 Y 371.560 I   3.536 J   2.121
G2 X 505.766 Y 367.318 I  -3.536 J  -2.121
G2 X 507.473 Y 366.611 I   0.707 J  -0.707
F150
G1 Z   3.000
G0 Z  15.000 
M9 M5

(* SHAPE Nr: 27 *)
G0 X 307.473 Y 366.611
M3 M8
G0 Z   3.000 
G1 Z  -1.500
F400
G3 X 305.766 Y 367.318 I  -1.000 J   0.000
F150
G1 Z  -3.000
F400
G2 X 312.837 Y 371.560 I   3.536 J   2.121
G2 X 305.766 Y 367.318 I  -3.536 J  -2.121
G2 X 307.473 Y 366.611 I   0.707 J  -0.707
F150
G1 Z   3.000
G0 Z  15.000 
M9 M5

(* SHAPE Nr: 28 *)
G0 X 407.473 Y 366.611
M3 M8
G0 Z   3.000 
G1 Z  -1.500
F400
G3 X 405.766 Y 367.318 I  -1.000 J   0.000
F150
G1 Z  -3.000
F400
G2 X 412.837 Y 371.560 I   3.536 J   2.121
G2 X 405.766 Y 367.318 I  -3.536 J  -2.121
G2 X 407.473 Y 366.611 I   0.707 J  -0.707
F150
G1 Z   3.000
G0 Z  15.000 
M9 M5

(* SHAPE Nr: 29 *)
G0 X 607.473 Y 366.611
M3 M8
G0 Z   3.000 
G1 Z  -1.500
F400
G3 X 605.766 Y 367.318 I  -1.000 J   0.000
F150
G1 Z  -3.000
F400
G2 X 612.837 Y 371.560 I   3.536 J   2.121
G2 X 605.766 Y 367.318 I  -3.536 J  -2.121
G2 X 607.473 Y 366.611 I   0.707 J  -0.707
F150
G1 Z   3.000
G0 Z  15.000 
M9 M5

(* SHAPE Nr: 30 *)
G0 X 407.473 Y 241.172
M3 M8
G0 Z   3.000 
G1 Z  -1.500
F400
G3 X 405.766 Y 241.879 I  -1.000 J   0.000
F150
G1 Z  -3.000
F400
G2 X 412.837 Y 246.121 I   3.536 J   2.121
G2 X 405.766 Y 241.879 I  -3.536 J  -2.121
G2 X 407.473 Y 241.172 I   0.707 J  -0.707
F150
G1 Z   3.000
G0 Z  15.000 
M9 M5

(* SHAPE Nr: 31 *)
G0 X 607.473 Y 241.172
M3 M8
G0 Z   3.000 
G1 Z  -1.500
F400
G3 X 605.766 Y 241.879 I  -1.000 J   0.000
F150
G1 Z  -3.000
F400
G2 X 612.837 Y 246.121 I   3.536 J   2.121
G2 X 605.766 Y 241.879 I  -3.536 J  -2.121
G2 X 607.473 Y 241.172 I   0.707 J  -0.707
F150
G1 Z   3.000
G0 Z  15.000 
M9 M5

(* SHAPE Nr: 32 *)
G0 X 507.473 Y 241.172
M3 M8
G0 Z   3.000 
G1 Z  -1.500
F400
G3 X 505.766 Y 241.879 I  -1.000 J   0.000
F150
G1 Z  -3.000
F400
G2 X 512.837 Y 246.121 I   3.536 J   2.121
G2 X 505.766 Y 241.879 I  -3.536 J  -2.121
G2 X 507.473 Y 241.172 I   0.707 J  -0.707
F150
G1 Z   3.000
G0 Z  15.000 
M9 M5

(* SHAPE Nr: 33 *)
G0 X 307.473 Y 241.172
M3 M8
G0 Z   3.000 
G1 Z  -1.500
F400
G3 X 305.766 Y 241.879 I  -1.000 J   0.000
F150
G1 Z  -3.000
F400
G2 X 312.837 Y 246.121 I   3.536 J   2.121
G2 X 305.766 Y 241.879 I  -3.536 J  -2.121
G2 X 307.473 Y 241.172 I   0.707 J  -0.707
F150
G1 Z   3.000
G0 Z  15.000 
M9 M5

(* SHAPE Nr: 34 *)
G0 X1009.774 Y 144.611
M3 M8
G0 Z   3.000 
G1 Z  -1.500
F400
G3 X1008.067 Y 145.318 I  -1.000 J   0.000
F150
G1 Z  -3.000
F400
G2 X1015.138 Y 149.560 I   3.536 J   2.121
G2 X1008.067 Y 145.318 I  -3.536 J  -2.121
G2 X1009.774 Y 144.611 I   0.707 J  -0.707
F150
G1 Z   3.000
G0 Z  15.000 
M9 M5

(* SHAPE Nr: 35 *)
G0 X1099.774 Y 144.611
M3 M8
G0 Z   3.000 
G1 Z  -1.500
F400
G3 X1098.067 Y 145.318 I  -1.000 J  -0.000
F150
G1 Z  -3.000
F400
G2 X1105.138 Y 149.560 I   3.536 J   2.121
G2 X1098.067 Y 145.318 I  -3.536 J  -2.121
G2 X1099.774 Y 144.611 I   0.707 J  -0.707
F150
G1 Z   3.000
G0 Z  15.000 
M9 M5

(* SHAPE Nr: 36 *)
G0 X1009.774 Y  19.172
M3 M8
G0 Z   3.000 
G1 Z  -1.500
F400
G3 X1008.067 Y  19.879 I  -1.000 J   0.000
F150
G1 Z  -3.000
F400
G2 X1015.138 Y  24.121 I   3.536 J   2.121
G2 X1008.067 Y  19.879 I  -3.536 J  -2.121
G2 X1009.774 Y  19.172 I   0.707 J  -0.707
F150
G1 Z   3.000
G0 Z  15.000 
M9 M5

(* SHAPE Nr: 37 *)
G0 X1099.774 Y  19.172
M3 M8
G0 Z   3.000 
G1 Z  -1.500
F400
G3 X1098.067 Y  19.879 I  -1.000 J  -0.000
F150
G1 Z  -3.000
F400
G2 X1105.138 Y  24.121 I   3.536 J   2.121
G2 X1098.067 Y  19.879 I  -3.536 J  -2.121
G2 X1099.774 Y  19.172 I   0.707 J  -0.707
F150
G1 Z   3.000
G0 Z  15.000 
M9 M5

(* SHAPE Nr: 38 *)
G0 X 928.774 Y 144.611
M3 M8
G0 Z   3.000 
G1 Z  -1.500
F400
G3 X 927.067 Y 145.318 I  -1.000 J   0.000
F150
G1 Z  -3.000
F400
G2 X 934.138 Y 149.560 I   3.536 J   2.121
G2 X 927.067 Y 145.318 I  -3.536 J  -2.121
G2 X 928.774 Y 144.611 I   0.707 J  -0.707
F150
G1 Z   3.000
G0 Z  15.000 
M9 M5

(* SHAPE Nr: 39 *)
G0 X 883.774 Y 144.611
M3 M8
G0 Z   3.000 
G1 Z  -1.500
F400
G3 X 882.067 Y 145.318 I  -1.000 J   0.000
F150
G1 Z  -3.000
F400
G2 X 889.138 Y 149.560 I   3.536 J   2.121
G2 X 882.067 Y 145.318 I  -3.536 J  -2.121
G2 X 883.774 Y 144.611 I   0.707 J  -0.707
F150
G1 Z   3.000
G0 Z  15.000 
M9 M5

(* SHAPE Nr: 40 *)
G0 X 928.774 Y  19.172
M3 M8
G0 Z   3.000 
G1 Z  -1.500
F400
G3 X 927.067 Y  19.879 I  -1.000 J   0.000
F150
G1 Z  -3.000
F400
G2 X 934.138 Y  24.121 I   3.536 J   2.121
G2 X 927.067 Y  19.879 I  -3.536 J  -2.121
G2 X 928.774 Y  19.172 I   0.707 J  -0.707
F150
G1 Z   3.000
G0 Z  15.000 
M9 M5

(* SHAPE Nr: 41 *)
G0 X 883.774 Y  19.172
M3 M8
G0 Z   3.000 
G1 Z  -1.500
F400
G3 X 882.067 Y  19.879 I  -1.000 J   0.000
F150
G1 Z  -3.000
F400
G2 X 889.138 Y  24.121 I   3.536 J   2.121
G2 X 882.067 Y  19.879 I  -3.536 J  -2.121
G2 X 883.774 Y  19.172 I   0.707 J  -0.707
F150
G1 Z   3.000
G0 Z  15.000 
M9 M5

(* SHAPE Nr: 42 *)
G0 X 941.774 Y 292.050
M3 M8
G0 Z   3.000 
G1 Z  -1.500
F400
G3 X 940.067 Y 292.757 I  -1.000 J   0.000
F150
G1 Z  -3.000
F400
G2 X 947.138 Y 296.999 I   3.536 J   2.121
G2 X 940.067 Y 292.757 I  -3.536 J  -2.121
G2 X 941.774 Y 292.050 I   0.707 J  -0.707
F150
G1 Z   3.000
G0 Z  15.000 
M9 M5

(* SHAPE Nr: 43 *)
G0 X 881.774 Y 292.050
M3 M8
G0 Z   3.000 
G1 Z  -1.500
F400
G3 X 880.067 Y 292.757 I  -1.000 J   0.000
F150
G1 Z  -3.000
F400
G2 X 887.138 Y 296.999 I   3.536 J   2.121
G2 X 880.067 Y 292.757 I  -3.536 J  -2.121
G2 X 881.774 Y 292.050 I   0.707 J  -0.707
F150
G1 Z   3.000
G0 Z  15.000 
M9 M5

(* SHAPE Nr: 44 *)
G0 X 941.774 Y 166.611
M3 M8
G0 Z   3.000 
G1 Z  -1.500
F400
G3 X 940.067 Y 167.318 I  -1.000 J   0.000
F150
G1 Z  -3.000
F400
G2 X 947.138 Y 171.560 I   3.536 J   2.121
G2 X 940.067 Y 167.318 I  -3.536 J  -2.121
G2 X 941.774 Y 166.611 I   0.707 J  -0.707
F150
G1 Z   3.000
G0 Z  15.000 
M9 M5

(* SHAPE Nr: 45 *)
G0 X 881.774 Y 166.611
M3 M8
G0 Z   3.000 
G1 Z  -1.500
F400
G3 X 880.067 Y 167.318 I  -1.000 J   0.000
F150
G1 Z  -3.000
F400
G2 X 887.138 Y 171.560 I   3.536 J   2.121
G2 X 880.067 Y 167.318 I  -3.536 J  -2.121
G2 X 881.774 Y 166.611 I   0.707 J  -0.707
F150
G1 Z   3.000
G0 Z  15.000 
M9 M5

(* SHAPE Nr: 46 *)
G0 X 167.464 Y 260.464
M3 M8
G0 Z   3.000 
G1 Z  -1.500
F400
G3 X 165.757 Y 261.172 I  -1.000 J   0.000
F150
G1 Z  -3.000
F400
G2 X 174.243 Y 266.828 I   4.243 J   2.828
G2 X 165.757 Y 261.172 I  -4.243 J  -2.828
G2 X 167.464 Y 260.464 I   0.707 J  -0.707
F150
G1 Z   3.000
G0 Z  15.000 
M9 M5

(* SHAPE Nr: 47 *)
G0 X 167.464 Y 305.464
M3 M8
G0 Z   3.000 
G1 Z  -1.500
F400
G3 X 165.757 Y 306.172 I  -1.000 J   0.000
F150
G1 Z  -3.000
F400
G2 X 174.243 Y 311.828 I   4.243 J   2.828
G2 X 165.757 Y 306.172 I  -4.243 J  -2.828
G2 X 167.464 Y 305.464 I   0.707 J  -0.707
F150
G1 Z   3.000
G0 Z  15.000 
M9 M5

(* SHAPE Nr: 48 *)
G0 X  16.464 Y 180.464
M3 M8
G0 Z   3.000 
G1 Z  -1.500
F400
G3 X  14.757 Y 181.172 I  -1.000 J   0.000
F150
G1 Z  -3.000
F400
G2 X  23.243 Y 186.828 I   4.243 J   2.828
G2 X  14.757 Y 181.172 I  -4.243 J  -2.828
G2 X  16.464 Y 180.464 I   0.707 J  -0.707
F150
G1 Z   3.000
G0 Z  15.000 
M9 M5

(* SHAPE Nr: 49 *)
G0 X  16.464 Y  55.464
M3 M8
G0 Z   3.000 
G1 Z  -1.500
F400
G3 X  14.757 Y  56.172 I  -1.000 J   0.000
F150
G1 Z  -3.000
F400
G2 X  23.243 Y  61.828 I   4.243 J   2.828
G2 X  14.757 Y  56.172 I  -4.243 J  -2.828
G2 X  16.464 Y  55.464 I   0.707 J  -0.707
F150
G1 Z   3.000
G0 Z  15.000 
M9 M5

(* SHAPE Nr: 50 *)
G0 X  16.464 Y 305.464
M3 M8
G0 Z   3.000 
G1 Z  -1.500
F400
G3 X  14.757 Y 306.172 I  -1.000 J   0.000
F150
G1 Z  -3.000
F400
G2 X  23.243 Y 311.828 I   4.243 J   2.828
G2 X  14.757 Y 306.172 I  -4.243 J  -2.828
G2 X  16.464 Y 305.464 I   0.707 J  -0.707
F150
G1 Z   3.000
G0 Z  15.000 
M9 M5

(* SHAPE Nr: 51 *)
G0 X  70.766 Y  20.464
M3 M8
G0 Z   3.000 
G1 Z  -1.500
F400
G3 X  69.059 Y  21.172 I  -1.000 J   0.000
F150
G1 Z  -3.000
F400
G2 X  77.544 Y  26.828 I   4.243 J   2.828
G2 X  69.059 Y  21.172 I  -4.243 J  -2.828
G2 X  70.766 Y  20.464 I   0.707 J  -0.707
F150
G1 Z   3.000
G0 Z  15.000 
M9 M5

(* SHAPE Nr: 52 *)
G0 X 170.766 Y  20.464
M3 M8
G0 Z   3.000 
G1 Z  -1.500
F400
G3 X 169.059 Y  21.172 I  -1.000 J   0.000
F150
G1 Z  -3.000
F400
G2 X 177.544 Y  26.828 I   4.243 J   2.828
G2 X 169.059 Y  21.172 I  -4.243 J  -2.828
G2 X 170.766 Y  20.464 I   0.707 J  -0.707
F150
G1 Z   3.000
G0 Z  15.000 
M9 M5

(* SHAPE Nr: 53 *)
G0 X 270.766 Y  20.464
M3 M8
G0 Z   3.000 
G1 Z  -1.500
F400
G3 X 269.059 Y  21.172 I  -1.000 J   0.000
F150
G1 Z  -3.000
F400
G2 X 277.544 Y  26.828 I   4.243 J   2.828
G2 X 269.059 Y  21.172 I  -4.243 J  -2.828
G2 X 270.766 Y  20.464 I   0.707 J  -0.707
F150
G1 Z   3.000
G0 Z  15.000 
M9 M5

(* SHAPE Nr: 54 *)
G0 X 370.766 Y  20.464
M3 M8
G0 Z   3.000 
G1 Z  -1.500
F400
G3 X 369.059 Y  21.172 I  -1.000 J   0.000
F150
G1 Z  -3.000
F400
G2 X 377.544 Y  26.828 I   4.243 J   2.828
G2 X 369.059 Y  21.172 I  -4.243 J  -2.828
G2 X 370.766 Y  20.464 I   0.707 J  -0.707
F150
G1 Z   3.000
G0 Z  15.000 
M9 M5

(* SHAPE Nr: 55 *)
G0 X 312.464 Y 217.464
M3 M8
G0 Z   3.000 
G1 Z  -1.500
F400
G3 X 310.757 Y 218.172 I  -1.000 J   0.000
F150
G1 Z  -3.000
F400
G2 X 319.243 Y 223.828 I   4.243 J   2.828
G2 X 310.757 Y 218.172 I  -4.243 J  -2.828
G2 X 312.464 Y 217.464 I   0.707 J  -0.707
F150
G1 Z   3.000
G0 Z  15.000 
M9 M5

(* SHAPE Nr: 56 *)
G0 X 222.464 Y 217.464
M3 M8
G0 Z   3.000 
G1 Z  -1.500
F400
G3 X 220.757 Y 218.172 I  -1.000 J   0.000
F150
G1 Z  -3.000
F400
G2 X 229.243 Y 223.828 I   4.243 J   2.828
G2 X 220.757 Y 218.172 I  -4.243 J  -2.828
G2 X 222.464 Y 217.464 I   0.707 J  -0.707
F150
G1 Z   3.000
G0 Z  15.000 
M9 M5

(* SHAPE Nr: 57 *)
G0 X  72.464 Y 340.464
M3 M8
G0 Z   3.000 
G1 Z  -1.500
F400
G3 X  70.757 Y 341.172 I  -1.000 J   0.000
F150
G1 Z  -3.000
F400
G2 X  79.243 Y 346.828 I   4.243 J   2.828
G2 X  70.757 Y 341.172 I  -4.243 J  -2.828
G2 X  72.464 Y 340.464 I   0.707 J  -0.707
F150
G1 Z   3.000
G0 Z  15.000 
M9 M5

(* SHAPE Nr: 58 *)
G0 X 132.464 Y 340.464
M3 M8
G0 Z   3.000 
G1 Z  -1.500
F400
G3 X 130.757 Y 341.172 I  -1.000 J   0.000
F150
G1 Z  -3.000
F400
G2 X 139.243 Y 346.828 I   4.243 J   2.828
G2 X 130.757 Y 341.172 I  -4.243 J  -2.828
G2 X 132.464 Y 340.464 I   0.707 J  -0.707
F150
G1 Z   3.000
G0 Z  15.000 
M9 M5

(* SHAPE Nr: 59 *)
G0 X 405.766 Y  55.464
M3 M8
G0 Z   3.000 
G1 Z  -1.500
F400
G3 X 404.059 Y  56.172 I  -1.000 J   0.000
F150
G1 Z  -3.000
F400
G2 X 412.544 Y  61.828 I   4.243 J   2.828
G2 X 404.059 Y  56.172 I  -4.243 J  -2.828
G2 X 405.766 Y  55.464 I   0.707 J  -0.707
F150
G1 Z   3.000
G0 Z  15.000 
M9 M5

(* SHAPE Nr: 60 *)
G0 X 405.766 Y 105.464
M3 M8
G0 Z   3.000 
G1 Z  -1.500
F400
G3 X 404.059 Y 106.172 I  -1.000 J   0.000
F150
G1 Z  -3.000
F400
G2 X 412.544 Y 111.828 I   4.243 J   2.828
G2 X 404.059 Y 106.172 I  -4.243 J  -2.828
G2 X 405.766 Y 105.464 I   0.707 J  -0.707
F150
G1 Z   3.000
G0 Z  15.000 
M9 M5

(* SHAPE Nr: 61 *)
G0 X 347.111 Y 160.111
M3 M8
G0 Z   3.000 
G1 Z  -1.500
F400
G3 X 345.404 Y 160.818 I  -1.000 J   0.000
F150
G1 Z  -3.000
F400
G2 X 354.596 Y 167.182 I   4.596 J   3.182
G2 X 345.404 Y 160.818 I  -4.596 J  -3.182
G2 X 347.111 Y 160.111 I   0.707 J  -0.707
F150
G1 Z   3.000
G0 Z  15.000 
M9 M5

(* SHAPE Nr: 62 *)
G0 X 336.758 Y 121.474
M3 M8
G0 Z   3.000 
G1 Z  -1.500
F400
G3 X 335.051 Y 122.181 I  -1.000 J   0.000
F150
G1 Z  -3.000
F400
G2 X 344.243 Y 128.545 I   4.596 J   3.182
G2 X 335.051 Y 122.181 I  -4.596 J  -3.182
G2 X 336.758 Y 121.474 I   0.707 J  -0.707
F150
G1 Z   3.000
G0 Z  15.000 
M9 M5

(* SHAPE Nr: 63 *)
G0 X 308.474 Y 170.464
M3 M8
G0 Z   3.000 
G1 Z  -1.500
F400
G3 X 306.767 Y 171.171 I  -1.000 J   0.000
F150
G1 Z  -3.000
F400
G2 X 315.959 Y 177.535 I   4.596 J   3.182
G2 X 306.767 Y 171.171 I  -4.596 J  -3.182
G2 X 308.474 Y 170.464 I   0.707 J  -0.707
F150
G1 Z   3.000
G0 Z  15.000 
M9 M5

(* SHAPE Nr: 64 *)
G0 X 424.301 Y  16.000
M3 M8
G0 Z   3.000 
G1 Z  -1.500
F400
G3 X 423.301 Y  17.000 I  -1.000 J   0.000
F150
G1 Z  -3.000
F400
G1 X 423.301 Y 145.158
G2 X 424.732 Y 147.799 I   5.000 J  -1.000
G1 X 480.470 Y 229.641
G2 X 485.040 Y 231.000 I   3.570 J  -3.641
G1 X 662.603 Y 231.000
F150
G1 Z  -1.500
F400
G3 X 661.603 Y 232.000 I  -1.000 J   0.000
F150
G1 Z  -3.000
F400
G1 X 661.603 Y 353.000
G2 X 664.603 Y 354.000 I   2.000 J  -1.000
G1 X 810.603 Y 354.000
G2 X 811.603 Y 351.000 I  -1.000 J  -2.000
G1 X 811.603 Y 334.000
F150
G1 Z  -1.500
F400
G3 X 812.310 Y 334.293 I   0.000 J   1.000
F150
G1 Z  -3.000
F400
G1 X 833.310 Y 313.293
F150
G1 Z  -1.500
F400
G2 X 832.603 Y 313.000 I  -0.707 J   0.707
F150
G1 Z  -3.000
F400
G1 X 832.603 Y 233.000
G1 X 832.603 Y  53.000
F150
G1 Z  -1.500
F400
G2 X 831.895 Y  53.293 I  -0.000 J   1.000
F150
G1 Z  -3.000
F400
G1 X 810.895 Y  32.293
F150
G1 Z  -1.500
F400
G3 X 811.603 Y  32.000 I   0.707 J   0.707
F150
G1 Z  -3.000
F400
G1 X 811.603 Y  15.000
G2 X 808.603 Y  14.000 I  -2.000 J   1.000
G1 X 424.301 Y  14.000
G2 X 423.301 Y  17.000 I   1.000 J   2.000
G2 X 424.301 Y  16.000 I   0.000 J  -1.000
F150
G1 Z   3.000
G0 Z  15.000 
M9 M5

(* SHAPE Nr: 65 *)
G0 X 265.603 Y 238.000
M3 M8
G0 Z   3.000 
G1 Z  -1.500
F400
G3 X 264.603 Y 239.000 I  -1.000 J   0.000
F150
G1 Z  -3.000
F400
G1 X 264.603 Y 255.000
F150
G1 Z  -1.500
F400
G2 X 265.568 Y 254.262 I   0.000 J  -1.000
F150
G1 Z  -3.000
F400
G3 X 263.638 Y 256.482 I  -1.267 J   0.848
F150
G1 Z  -1.500
F400
G2 X 264.603 Y 257.220 I   0.965 J  -0.262
F150
G1 Z  -3.000
F400
G1 X 264.603 Y 358.220
F150
G1 Z  -1.500
F400
G2 X 265.568 Y 357.482 I  -0.000 J  -1.000
F150
G1 Z  -3.000
F400
G3 X 263.638 Y 359.701 I  -1.267 J   0.848
F150
G1 Z  -1.500
F400
G2 X 264.603 Y 360.439 I   0.965 J  -0.262
F150
G1 Z  -3.000
F400
G1 X 264.603 Y 376.439
G2 X 267.603 Y 377.439 I   2.000 J  -1.000
G1 X 651.603 Y 377.439
G2 X 652.603 Y 374.439 I  -1.000 J  -2.000
G1 X 652.603 Y 358.439
F150
G1 Z  -1.500
F400
G2 X 651.638 Y 359.177 I   0.000 J   1.000
F150
G1 Z  -3.000
F400
G3 X 653.568 Y 356.957 I   1.267 J  -0.848
F150
G1 Z  -1.500
F400
G2 X 652.603 Y 356.220 I  -0.965 J   0.262
F150
G1 Z  -3.000
F400
G1 X 652.603 Y 255.220
F150
G1 Z  -1.500
F400
G2 X 651.638 Y 255.957 I   0.000 J   1.000
F150
G1 Z  -3.000
F400
G3 X 653.568 Y 253.738 I   1.267 J  -0.848
F150
G1 Z  -1.500
F400
G2 X 652.603 Y 253.000 I  -0.965 J   0.262
F150
G1 Z  -3.000
F400
G1 X 652.603 Y 237.000
G2 X 649.603 Y 236.000 I  -2.000 J   1.000
G1 X 265.603 Y 236.000
G2 X 264.603 Y 239.000 I   1.000 J   2.000
G2 X 265.603 Y 238.000 I   0.000 J  -1.000
F150
G1 Z   3.000
G0 Z  15.000 
M9 M5

(* SHAPE Nr: 66 *)
G0 X 265.603 Y 359.439
M3 M8
G0 Z   3.000 
G1 Z  -3.000
F400
G2 X 265.568 Y 359.177 I  -1.000 J   0.000
G2 X 265.451 Y 357.329 I  -1.267 J  -0.848
G3 X 266.451 Y 358.329 I   0.000 J   1.000
F150
G1 Z   3.000
G0 Z  15.000 
M9 M5

(* SHAPE Nr: 67 *)
G0 X 839.603 Y 163.439
M3 M8
G0 Z   3.000 
G1 Z  -1.500
F400
G3 X 838.603 Y 164.439 I  -1.000 J   0.000
F150
G1 Z  -3.000
F400
G1 X 838.603 Y 180.439
F150
G1 Z  -1.500
F400
G2 X 839.568 Y 179.701 I   0.000 J  -1.000
F150
G1 Z  -3.000
F400
G3 X 837.638 Y 181.921 I  -1.267 J   0.848
F150
G1 Z  -1.500
F400
G2 X 838.603 Y 182.659 I   0.965 J  -0.262
F150
G1 Z  -3.000
F400
G1 X 838.603 Y 283.659
F150
G1 Z  -1.500
F400
G2 X 839.568 Y 282.921 I   0.000 J  -1.000
F150
G1 Z  -3.000
F400
G3 X 837.638 Y 285.140 I  -1.267 J   0.848
F150
G1 Z  -1.500
F400
G2 X 838.603 Y 285.878 I   0.965 J  -0.262
F150
G1 Z  -3.000
F400
G1 X 838.603 Y 301.878
G2 X 841.603 Y 302.878 I   2.000 J  -1.000
G1 X 968.603 Y 302.878
G2 X 969.603 Y 299.878 I  -1.000 J  -2.000
G1 X 969.603 Y 285.878
G2 X 966.603 Y 284.878 I  -2.000 J   1.000
G1 X 952.603 Y 284.878
G3 X 952.603 Y 282.878 I   1.000 J  -1.000
G1 X 952.603 Y 281.659
G3 X 954.603 Y 281.659 I   1.000 J   1.000
G1 X 987.603 Y 281.659
G2 X 988.603 Y 278.659 I  -1.000 J  -2.000
G1 X 988.603 Y 183.659
G2 X 985.603 Y 182.659 I  -2.000 J   1.000
G1 X 952.603 Y 182.659
G3 X 952.603 Y 180.659 I   1.000 J  -1.000
G1 X 952.603 Y 179.439
G3 X 954.603 Y 179.439 I   1.000 J   1.000
G1 X 968.603 Y 179.439
G2 X 969.603 Y 176.439 I  -1.000 J  -2.000
G1 X 969.603 Y 162.439
G2 X 966.603 Y 161.439 I  -2.000 J   1.000
G1 X 839.603 Y 161.439
G2 X 838.603 Y 164.439 I   1.000 J   2.000
G2 X 839.603 Y 163.439 I   0.000 J  -1.000
F150
G1 Z   3.000
G0 Z  15.000 
M9 M5

(* SHAPE Nr: 68 *)
G0 X 839.603 Y  16.000
M3 M8
G0 Z   3.000 
G1 Z  -1.500
F400
G3 X 838.603 Y  17.000 I  -1.000 J   0.000
F150
G1 Z  -3.000
F400
G1 X 838.603 Y  33.000
F150
G1 Z  -1.500
F400
G2 X 839.568 Y  32.262 I   0.000 J  -1.000
F150
G1 Z  -3.000
F400
G3 X 837.638 Y  34.482 I  -1.267 J   0.848
F150
G1 Z  -1.500
F400
G2 X 838.603 Y  35.220 I   0.965 J  -0.262
F150
G1 Z  -3.000
F400
G1 X 838.603 Y 136.220
F150
G1 Z  -1.500
F400
G2 X 839.568 Y 135.482 I   0.000 J  -1.000
F150
G1 Z  -3.000
F400
G3 X 837.638 Y 137.701 I  -1.267 J   0.848
F150
G1 Z  -1.500
F400
G2 X 838.603 Y 138.439 I   0.965 J  -0.262
F150
G1 Z  -3.000
F400
G1 X 838.603 Y 154.439
G2 X 841.603 Y 155.439 I   2.000 J  -1.000
G1 X 960.603 Y 155.439
G2 X 961.603 Y 152.439 I  -1.000 J  -2.000
G1 X 961.603 Y 136.439
F150
G1 Z  -1.500
F400
G2 X 960.638 Y 137.177 I   0.000 J   1.000
F150
G1 Z  -3.000
F400
G3 X 962.568 Y 134.957 I   1.267 J  -0.848
F150
G1 Z  -1.500
F400
G2 X 961.603 Y 134.220 I  -0.965 J   0.262
F150
G1 Z  -3.000
F400
G1 X 961.603 Y  33.220
F150
G1 Z  -1.500
F400
G2 X 960.638 Y  33.957 I   0.000 J   1.000
F150
G1 Z  -3.000
F400
G3 X 962.568 Y  31.738 I   1.267 J  -0.848
F150
G1 Z  -1.500
F400
G2 X 961.603 Y  31.000 I  -0.965 J   0.262
F150
G1 Z  -3.000
F400
G1 X 961.603 Y  15.000
G2 X 958.603 Y  14.000 I  -2.000 J   1.000
G1 X 839.603 Y  14.000
G2 X 838.603 Y  17.000 I   1.000 J   2.000
G2 X 839.603 Y  16.000 I   0.000 J  -1.000
F150
G1 Z   3.000
G0 Z  15.000 
M9 M5

(* SHAPE Nr: 69 *)
G0 X 994.603 Y 183.659
M3 M8
G0 Z   3.000 
G1 Z  -1.500
F400
G3 X 993.603 Y 184.659 I  -1.000 J   0.000
F150
G1 Z  -3.000
F400
G1 X 993.603 Y 281.659
G2 X 996.603 Y 282.659 I   2.000 J  -1.000
G1 X1012.603 Y 282.659
G3 X1012.603 Y 284.659 I  -1.000 J   1.000
G1 X1012.603 Y 301.878
G2 X1015.603 Y 302.878 I   2.000 J  -1.000
G1 X1122.603 Y 302.878
G2 X1123.603 Y 299.878 I  -1.000 J  -2.000
G1 X1123.603 Y 283.878
F150
G1 Z  -1.500
F400
G2 X1122.638 Y 284.616 I   0.000 J   1.000
F150
G1 Z  -3.000
F400
G3 X1124.568 Y 282.396 I   1.267 J  -0.848
F150
G1 Z  -1.500
F400
G2 X1123.603 Y 281.659 I  -0.965 J   0.262
F150
G1 Z  -3.000
F400
G1 X1123.603 Y 180.659
F150
G1 Z  -1.500
F400
G2 X1122.638 Y 181.396 I   0.000 J   1.000
F150
G1 Z  -3.000
F400
G3 X1124.568 Y 179.177 I   1.267 J  -0.848
F150
G1 Z  -1.500
F400
G2 X1123.603 Y 178.439 I  -0.965 J   0.262
F150
G1 Z  -3.000
F400
G1 X1123.603 Y 162.439
G2 X1120.603 Y 161.439 I  -2.000 J   1.000
G1 X1013.603 Y 161.439
G2 X1012.603 Y 164.439 I   1.000 J   2.000
G1 X1012.603 Y 181.659
G3 X1010.603 Y 181.659 I  -1.000 J  -1.000
G1 X 994.603 Y 181.659
G2 X 993.603 Y 184.659 I   1.000 J   2.000
G2 X 994.603 Y 183.659 I   0.000 J  -1.000
F150
G1 Z   3.000
G0 Z  15.000 
M9 M5

(* SHAPE Nr: 70 *)
G0 X 967.603 Y  16.000
M3 M8
G0 Z   3.000 
G1 Z  -1.500
F400
G3 X 966.603 Y  17.000 I  -1.000 J   0.000
F150
G1 Z  -3.000
F400
G1 X 966.603 Y  33.000
F150
G1 Z  -1.500
F400
G2 X 967.568 Y  32.262 I   0.000 J  -1.000
F150
G1 Z  -3.000
F400
G3 X 965.638 Y  34.482 I  -1.267 J   0.848
F150
G1 Z  -1.500
F400
G2 X 966.603 Y  35.220 I   0.965 J  -0.262
F150
G1 Z  -3.000
F400
G1 X 966.603 Y 136.220
F150
G1 Z  -1.500
F400
G2 X 967.568 Y 135.482 I  -0.000 J  -1.000
F150
G1 Z  -3.000
F400
G3 X 965.638 Y 137.701 I  -1.267 J   0.848
F150
G1 Z  -1.500
F400
G2 X 966.603 Y 138.439 I   0.965 J  -0.262
F150
G1 Z  -3.000
F400
G1 X 966.603 Y 154.439
G2 X 969.603 Y 155.439 I   2.000 J  -1.000
G1 X1144.603 Y 155.439
G2 X1145.603 Y 152.439 I  -1.000 J  -2.000
G1 X1145.603 Y 134.220
G3 X1147.603 Y 134.220 I   1.000 J   1.000
G1 X1185.603 Y 134.220
G2 X1186.603 Y 131.220 I  -1.000 J  -2.000
G1 X1186.603 Y  36.220
G2 X1183.603 Y  35.220 I  -2.000 J   1.000
G1 X1145.603 Y  35.220
G3 X1145.603 Y  33.220 I   1.000 J  -1.000
G1 X1145.603 Y  13.000
F150
G1 Z  -1.500
F400
G2 X1144.603 Y  14.000 I   0.000 J   1.000
F150
G1 Z  -3.000
F400
G1 X 967.603 Y  14.000
G2 X 966.603 Y  17.000 I   1.000 J   2.000
G2 X 967.603 Y  16.000 I   0.000 J  -1.000
F150
G1 Z   3.000
G0 Z  15.000 
M9 M5

(* SHAPE Nr: 71 *)
G0 X 839.603 Y 133.220
M3 M8
G0 Z   3.000 
G1 Z  -1.500
F400
G2 X 838.603 Y 132.220 I  -1.000 J   0.000
F150
G1 Z  -3.000
F400
G1 X 838.603 Y  33.220
G3 X 839.603 Y  34.220 I   0.000 J   1.000
F150
G1 Z   3.000
G0 Z  15.000 
M9 M5

(* SHAPE Nr: 72 *)
G0 X  31.000 Y  16.000
M3 M8
G0 Z   3.000 
G1 Z  -1.500
F400
G3 X  30.000 Y  17.000 I  -1.000 J   0.000
F150
G1 Z  -3.000
F400
G1 X  30.000 Y  34.000
F150
G1 Z  -1.500
F400
G3 X  29.293 Y  33.707 I  -0.000 J  -1.000
F150
G1 Z  -3.000
F400
G1 X   8.293 Y  54.707
F150
G1 Z  -1.500
F400
G2 X   9.000 Y  55.000 I   0.707 J  -0.707
F150
G1 Z  -3.000
F400
G1 X   9.000 Y 235.000
G1 X   9.000 Y 315.000
F150
G1 Z  -1.500
F400
G2 X   9.707 Y 314.707 I   0.000 J  -1.000
F150
G1 Z  -3.000
F400
G1 X  30.707 Y 335.707
F150
G1 Z  -1.500
F400
G3 X  30.000 Y 336.000 I  -0.707 J  -0.707
F150
G1 Z  -3.000
F400
G1 X  30.000 Y 353.000
G2 X  33.000 Y 354.000 I   2.000 J  -1.000
G1 X 179.000 Y 354.000
G2 X 180.000 Y 351.000 I  -1.000 J  -2.000
G1 X 180.000 Y 230.000
F150
G1 Z  -1.500
F400
G3 X 181.000 Y 231.000 I   0.000 J   1.000
F150
G1 Z  -3.000
F400
G1 X 358.562 Y 231.000
G2 X 362.258 Y 227.988 I  -1.000 J  -5.000
G1 X 417.997 Y 146.146
G2 X 418.301 Y 143.158 I  -4.696 J  -1.988
G1 X 418.301 Y  15.000
G2 X 415.301 Y  14.000 I  -2.000 J   1.000
G1 X  31.000 Y  14.000
G2 X  30.000 Y  17.000 I   1.000 J   2.000
G2 X  31.000 Y  16.000 I   0.000 J  -1.000
F150
G1 Z   3.000
G0 Z  15.000 
M9 M5
G0 X   0.000 Y   0.000
M2 (Program end)