(Generated with: DXF2GCODE, Version: Py3.6.9 PyQt5.10.1, Date: $Date: Mon Sep 25 13:57:11 2017 +0200 $)
(Created from file: /home/benico/ArcelorMittal/Designs_Benico/Benico_Coffee-Grinder/09-2020-03_B-Grind_Mk-IX.rev03/LaserCutting_pdf-dxf-GCode/mnf_part-12_OutletFunnels.dxf)
(Output format description: G-CODE for LinuxCNC)
(Time: Thu Aug 13 21:37:39 2020)
G21 (Units in millimeters)
G90 (Absolute programming)
G64 (Default cutting) G17 (XY plane) G40 (Cancel radius comp.) G49 (Cancel length comp.)
G0 Z  15.000 

(*** LAYER: Outline ***)
T1 M6
S6000

(* SHAPE Nr: 0 *)
G0 X 274.690 Y  80.542
M3 M8
G0 Z   3.000 
F150
G1 Z  -1.500
F400
G3 X 272.983 Y  81.249 I  -1.000 J   0.000
F150
G1 Z  -3.000
F400
G2 X 277.226 Y  82.664 I   2.121 J   0.707
G2 X 272.983 Y  81.249 I  -2.121 J  -0.707
G2 X 274.690 Y  80.542 I   0.707 J  -0.707
F150
G1 Z   3.000
G0 Z  15.000 
M9 M5

(* SHAPE Nr: 1 *)
G0 X 268.856 Y  61.412
M3 M8
G0 Z   3.000 
G1 Z  -1.500
F400
G3 X 267.149 Y  62.119 I  -1.000 J   0.000
F150
G1 Z  -3.000
F400
G2 X 271.391 Y  63.533 I   2.121 J   0.707
G2 X 267.149 Y  62.119 I  -2.121 J  -0.707
G2 X 268.856 Y  61.412 I   0.707 J  -0.707
F150
G1 Z   3.000
G0 Z  15.000 
M9 M5

(* SHAPE Nr: 2 *)
G0 X 294.771 Y 203.538
M3 M8
G0 Z   3.000 
G1 Z  -1.500
F400
G3 X 293.064 Y 204.245 I  -1.000 J   0.000
F150
G1 Z  -3.000
F400
G2 X 297.307 Y 205.659 I   2.121 J   0.707
G2 X 293.064 Y 204.245 I  -2.121 J  -0.707
G2 X 294.771 Y 203.538 I   0.707 J  -0.707
F150
G1 Z   3.000
G0 Z  15.000 
M9 M5

(* SHAPE Nr: 3 *)
G0 X 293.558 Y 183.575
M3 M8
G0 Z   3.000 
G1 Z  -1.500
F400
G3 X 291.851 Y 184.282 I  -1.000 J   0.000
F150
G1 Z  -3.000
F400
G2 X 296.094 Y 185.696 I   2.121 J   0.707
G2 X 291.851 Y 184.282 I  -2.121 J  -0.707
G2 X 293.558 Y 183.575 I   0.707 J  -0.707
F150
G1 Z   3.000
G0 Z  15.000 
M9 M5

(* SHAPE Nr: 4 *)
G0 X 114.415 Y 131.679
M3 M8
G0 Z   3.000 
G1 Z  -1.500
F400
G3 X 112.656 Y 132.329 I  -1.000 J  -0.000
F150
G1 Z  -3.000
F400
G1 X 111.839 Y 133.029
G2 X 111.853 Y 133.045 I   0.759 J  -0.651
G1 X 111.051 Y 133.762
G2 X 111.065 Y 133.777 I   0.745 J  -0.667
G1 X 110.279 Y 134.511
G2 X 110.294 Y 134.526 I   0.731 J  -0.682
G1 X 109.523 Y 135.277
G2 X 109.538 Y 135.292 I   0.717 J  -0.698
G1 X 108.780 Y 136.061
G2 X 108.796 Y 136.076 I   0.702 J  -0.713
G1 X 108.055 Y 136.861
G2 X 108.070 Y 136.875 I   0.686 J  -0.727
G1 X 107.346 Y 137.676
G2 X 107.361 Y 137.690 I   0.671 J  -0.742
G1 X 106.654 Y 138.506
G2 X 106.670 Y 138.520 I   0.655 J  -0.756
G1 X 105.980 Y 139.350
G2 X 105.995 Y 139.363 I   0.639 J  -0.769
G1 X 105.368 Y 140.150
G2 X 105.383 Y 140.162 I   0.623 J  -0.782
G1 X 104.771 Y 140.961
G2 X 104.787 Y 140.972 I   0.608 J  -0.794
G1 X 104.191 Y 141.783
G2 X 104.206 Y 141.794 I   0.593 J  -0.806
G1 X 103.626 Y 142.617
G2 X 103.642 Y 142.628 I   0.577 J  -0.817
G1 X 103.077 Y 143.461
G2 X 103.093 Y 143.471 I   0.561 J  -0.828
G1 X 102.543 Y 144.319
G2 X 102.559 Y 144.330 I   0.545 J  -0.839
G1 X 102.025 Y 145.188
G2 X 102.041 Y 145.198 I   0.528 J  -0.849
G1 X 101.524 Y 146.066
G2 X 101.540 Y 146.076 I   0.512 J  -0.859
G1 X 101.040 Y 146.954
G2 X 101.056 Y 146.963 I   0.495 J  -0.869
G1 X 100.573 Y 147.851
G2 X 100.590 Y 147.860 I   0.479 J  -0.878
G1 X 100.122 Y 148.759
G2 X 100.139 Y 148.768 I   0.462 J  -0.887
G1 X  99.688 Y 149.676
G2 X  99.706 Y 149.684 I   0.444 J  -0.896
G1 X  99.273 Y 150.601
G2 X  99.290 Y 150.609 I   0.427 J  -0.904
G1 X  98.875 Y 151.534
G2 X  98.892 Y 151.542 I   0.410 J  -0.912
G1 X  98.494 Y 152.474
G2 X  98.512 Y 152.481 I   0.392 J  -0.920
G1 X  98.131 Y 153.424
G2 X  98.149 Y 153.431 I   0.375 J  -0.927
G1 X  97.786 Y 154.380
G2 X  97.804 Y 154.387 I   0.357 J  -0.934
G1 X  97.460 Y 155.343
G2 X  97.478 Y 155.349 I   0.339 J  -0.941
G1 X  97.151 Y 156.312
G2 X  97.169 Y 156.318 I   0.321 J  -0.947
G1 X  96.861 Y 157.287
G2 X  96.880 Y 157.292 I   0.303 J  -0.953
G1 X  96.589 Y 158.268
G2 X  96.608 Y 158.274 I   0.285 J  -0.959
G1 X  96.336 Y 159.255
G2 X  96.355 Y 159.260 I   0.267 J  -0.964
G1 X  96.102 Y 160.247
G2 X  96.120 Y 160.251 I   0.248 J  -0.969
G1 X  95.886 Y 161.243
G2 X  95.905 Y 161.247 I   0.230 J  -0.973
G1 X  95.689 Y 162.242
G2 X  95.708 Y 162.246 I   0.211 J  -0.977
G1 X  95.511 Y 163.247
G2 X  95.530 Y 163.250 I   0.193 J  -0.981
G1 X  95.352 Y 164.255
G2 X  95.371 Y 164.258 I   0.174 J  -0.985
G1 X  95.212 Y 165.266
G2 X  95.231 Y 165.268 I   0.156 J  -0.988
G1 X  95.091 Y 166.279
G2 X  95.110 Y 166.281 I   0.137 J  -0.991
G1 X  94.990 Y 167.294
G2 X  95.008 Y 167.296 I   0.118 J  -0.993
G1 X  94.907 Y 168.312
G2 X  94.926 Y 168.314 I   0.099 J  -0.995
G1 X  94.844 Y 169.332
G2 X  94.862 Y 169.333 I   0.080 J  -0.997
G1 X  94.799 Y 170.352
G2 X  94.818 Y 170.353 I   0.062 J  -0.998
G1 X  94.775 Y 171.374
G2 X  94.793 Y 171.374 I   0.043 J  -0.999
G1 X  94.769 Y 172.395
G2 X  94.788 Y 172.395 I   0.024 J  -1.000
G1 X  94.783 Y 173.416
G2 X  94.802 Y 173.416 I   0.005 J  -1.000
G1 X  94.816 Y 174.437
G2 X  94.835 Y 174.437 I  -0.014 J  -1.000
G1 X  94.868 Y 175.457
G2 X  94.887 Y 175.457 I  -0.033 J  -0.999
G1 X  94.939 Y 176.476
G2 X  94.958 Y 176.475 I  -0.052 J  -0.999
G1 X  95.030 Y 177.494
G2 X  95.049 Y 177.492 I  -0.070 J  -0.998
G1 X  95.140 Y 178.509
G2 X  95.159 Y 178.507 I  -0.089 J  -0.996
G1 X  95.269 Y 179.521
G2 X  95.288 Y 179.519 I  -0.108 J  -0.994
G1 X  95.417 Y 180.531
G2 X  95.436 Y 180.529 I  -0.127 J  -0.992
G1 X  95.584 Y 181.538
G2 X  95.603 Y 181.535 I  -0.145 J  -0.989
G1 X  95.770 Y 182.542
G2 X  95.789 Y 182.539 I  -0.164 J  -0.986
G1 X  95.975 Y 183.541
G2 X  95.994 Y 183.537 I  -0.183 J  -0.983
G1 X  96.199 Y 184.535
G2 X  96.217 Y 184.531 I  -0.201 J  -0.980
G1 X  96.441 Y 185.525
G2 X  96.460 Y 185.521 I  -0.220 J  -0.976
G1 X  96.703 Y 186.511
G2 X  96.721 Y 186.506 I  -0.238 J  -0.971
G1 X  96.983 Y 187.491
G2 X  97.001 Y 187.486 I  -0.257 J  -0.966
G1 X  97.281 Y 188.464
G2 X  97.299 Y 188.459 I  -0.275 J  -0.961
G1 X  97.597 Y 189.432
G2 X  97.615 Y 189.426 I  -0.293 J  -0.956
G1 X  97.932 Y 190.393
G2 X  97.950 Y 190.386 I  -0.311 J  -0.950
G1 X  98.285 Y 191.347
G2 X  98.303 Y 191.341 I  -0.329 J  -0.944
G1 X  98.656 Y 192.295
G2 X  98.674 Y 192.288 I  -0.347 J  -0.938
G1 X  99.045 Y 193.232
G2 X  99.062 Y 193.225 I  -0.365 J  -0.931
G1 X  99.451 Y 194.163
G2 X  99.468 Y 194.155 I  -0.383 J  -0.924
G1 X  99.875 Y 195.085
G2 X  99.892 Y 195.077 I  -0.400 J  -0.916
G1 X 100.316 Y 195.999
G2 X 100.334 Y 195.991 I  -0.418 J  -0.909
G1 X 100.775 Y 196.905
G2 X 100.792 Y 196.896 I  -0.435 J  -0.900
G1 X 101.250 Y 197.798
G2 X 101.267 Y 197.789 I  -0.452 J  -0.892
G1 X 101.741 Y 198.682
G2 X 101.758 Y 198.673 I  -0.469 J  -0.883
G1 X 102.250 Y 199.556
G2 X 102.267 Y 199.547 I  -0.486 J  -0.874
G1 X 102.775 Y 200.421
G2 X 102.792 Y 200.411 I  -0.503 J  -0.864
G1 X 103.317 Y 201.275
G2 X 103.334 Y 201.264 I  -0.520 J  -0.854
G1 X 103.874 Y 202.115
G2 X 103.890 Y 202.105 I  -0.536 J  -0.844
G1 X 104.446 Y 202.945
G2 X 104.463 Y 202.934 I  -0.552 J  -0.834
G1 X 105.035 Y 203.763
G2 X 105.051 Y 203.752 I  -0.568 J  -0.823
G1 X 105.640 Y 204.570
G2 X 105.655 Y 204.559 I  -0.584 J  -0.812
G1 X 106.260 Y 205.365
G2 X 106.276 Y 205.353 I  -0.600 J  -0.800
G1 X 106.941 Y 206.205
G2 X 106.958 Y 206.192 I  -0.616 J  -0.788
G1 X 107.641 Y 207.030
G2 X 107.658 Y 207.016 I  -0.632 J  -0.775
G1 X 108.359 Y 207.839
G2 X 108.374 Y 207.826 I  -0.648 J  -0.761
G1 X 109.093 Y 208.634
G2 X 109.108 Y 208.620 I  -0.664 J  -0.748
G1 X 109.844 Y 209.413
G2 X 109.859 Y 209.399 I  -0.680 J  -0.733
G1 X 110.594 Y 210.159
G2 X 110.608 Y 210.144 I  -0.695 J  -0.719
G1 X 111.359 Y 210.889
G2 X 111.373 Y 210.874 I  -0.710 J  -0.704
G1 X 112.139 Y 211.603
G2 X 112.153 Y 211.588 I  -0.724 J  -0.690
G1 X 112.934 Y 212.301
G2 X 112.948 Y 212.285 I  -0.738 J  -0.674
G1 X 113.743 Y 212.981
F150
G1 Z  -1.500
F400
G2 X 113.990 Y 212.323 I  -0.752 J  -0.659
F150
G1 Z  -3.000
F400
G1 X 177.584 Y 212.323
F150
G1 Z  -1.500
F400
G2 X 177.337 Y 211.664 I  -1.000 J  -0.000
F150
G1 Z  -3.000
F400
G1 X 178.132 Y 210.968
G2 X 178.118 Y 210.952 I  -0.752 J   0.659
G1 X 178.898 Y 210.239
G2 X 178.884 Y 210.224 I  -0.738 J   0.674
G1 X 179.650 Y 209.495
G2 X 179.635 Y 209.480 I  -0.724 J   0.690
G1 X 180.386 Y 208.735
G2 X 180.371 Y 208.721 I  -0.710 J   0.704
G1 X 181.106 Y 207.961
G2 X 181.091 Y 207.946 I  -0.695 J   0.719
G1 X 181.826 Y 207.153
G2 X 181.810 Y 207.139 I  -0.680 J   0.733
G1 X 182.528 Y 206.330
G2 X 182.513 Y 206.317 I  -0.664 J   0.748
G1 X 183.214 Y 205.493
G2 X 183.197 Y 205.480 I  -0.648 J   0.761
G1 X 183.881 Y 204.642
G2 X 183.865 Y 204.629 I  -0.632 J   0.775
G1 X 184.530 Y 203.777
G2 X 184.514 Y 203.765 I  -0.616 J   0.788
G1 X 185.119 Y 202.958
G2 X 185.103 Y 202.947 I  -0.600 J   0.800
G1 X 185.692 Y 202.129
G2 X 185.676 Y 202.118 I  -0.584 J   0.812
G1 X 186.248 Y 201.288
G2 X 186.232 Y 201.277 I  -0.568 J   0.823
G1 X 186.789 Y 200.437
G2 X 186.773 Y 200.427 I  -0.552 J   0.834
G1 X 187.313 Y 199.576
G2 X 187.296 Y 199.566 I  -0.536 J   0.844
G1 X 187.822 Y 198.702
G2 X 187.805 Y 198.692 I  -0.520 J   0.854
G1 X 188.314 Y 197.818
G2 X 188.297 Y 197.809 I  -0.503 J   0.864
G1 X 188.789 Y 196.925
G2 X 188.772 Y 196.916 I  -0.486 J   0.874
G1 X 189.247 Y 196.023
G2 X 189.230 Y 196.014 I  -0.469 J   0.883
G1 X 189.687 Y 195.112
G2 X 189.670 Y 195.104 I  -0.452 J   0.892
G1 X 190.111 Y 194.190
G2 X 190.094 Y 194.182 I  -0.435 J   0.900
G1 X 190.518 Y 193.260
G2 X 190.501 Y 193.252 I  -0.418 J   0.909
G1 X 190.907 Y 192.323
G2 X 190.889 Y 192.315 I  -0.400 J   0.916
G1 X 191.278 Y 191.378
G2 X 191.260 Y 191.371 I  -0.383 J   0.924
G1 X 191.630 Y 190.426
G2 X 191.613 Y 190.419 I  -0.365 J   0.931
G1 X 191.966 Y 189.465
G2 X 191.948 Y 189.459 I  -0.347 J   0.938
G1 X 192.283 Y 188.498
G2 X 192.265 Y 188.492 I  -0.329 J   0.944
G1 X 192.582 Y 187.525
G2 X 192.564 Y 187.519 I  -0.311 J   0.950
G1 X 192.862 Y 186.547
G2 X 192.844 Y 186.541 I  -0.293 J   0.956
G1 X 193.123 Y 185.563
G2 X 193.105 Y 185.558 I  -0.275 J   0.961
G1 X 193.367 Y 184.573
G2 X 193.348 Y 184.569 I  -0.257 J   0.966
G1 X 193.591 Y 183.579
G2 X 193.573 Y 183.574 I  -0.238 J   0.971
G1 X 193.797 Y 182.580
G2 X 193.778 Y 182.576 I  -0.220 J   0.976
G1 X 193.984 Y 181.578
G2 X 193.965 Y 181.574 I  -0.201 J   0.980
G1 X 194.151 Y 180.572
G2 X 194.133 Y 180.569 I  -0.183 J   0.983
G1 X 194.300 Y 179.562
G2 X 194.281 Y 179.559 I  -0.164 J   0.986
G1 X 194.430 Y 178.550
G2 X 194.411 Y 178.547 I  -0.145 J   0.989
G1 X 194.540 Y 177.535
G2 X 194.522 Y 177.533 I  -0.127 J   0.992
G1 X 194.632 Y 176.518
G2 X 194.613 Y 176.517 I  -0.108 J   0.994
G1 X 194.704 Y 175.500
G2 X 194.685 Y 175.499 I  -0.089 J   0.996
G1 X 194.757 Y 174.480
G2 X 194.738 Y 174.479 I  -0.070 J   0.998
G1 X 194.791 Y 173.459
G2 X 194.772 Y 173.458 I  -0.052 J   0.999
G1 X 194.805 Y 172.438
G2 X 194.786 Y 172.437 I  -0.033 J   0.999
G1 X 194.801 Y 171.416
G2 X 194.782 Y 171.416 I  -0.014 J   1.000
G1 X 194.776 Y 170.395
G2 X 194.758 Y 170.396 I   0.005 J   1.000
G1 X 194.733 Y 169.375
G2 X 194.714 Y 169.375 I   0.024 J   1.000
G1 X 194.671 Y 168.355
G2 X 194.652 Y 168.356 I   0.043 J   0.999
G1 X 194.589 Y 167.337
G2 X 194.570 Y 167.338 I   0.062 J   0.998
G1 X 194.488 Y 166.321
G2 X 194.469 Y 166.322 I   0.080 J   0.997
G1 X 194.368 Y 165.306
G2 X 194.349 Y 165.308 I   0.099 J   0.995
G1 X 194.228 Y 164.295
G2 X 194.210 Y 164.298 I   0.118 J   0.993
G1 X 194.070 Y 163.287
G2 X 194.051 Y 163.290 I   0.137 J   0.991
G1 X 193.893 Y 162.282
G2 X 193.874 Y 162.285 I   0.156 J   0.988
G1 X 193.696 Y 161.281
G2 X 193.678 Y 161.284 I   0.174 J   0.985
G1 X 193.481 Y 160.284
G2 X 193.462 Y 160.287 I   0.193 J   0.981
G1 X 193.247 Y 159.292
G2 X 193.229 Y 159.296 I   0.211 J   0.977
G1 X 192.995 Y 158.305
G2 X 192.976 Y 158.309 I   0.230 J   0.973
G1 X 192.724 Y 157.323
G2 X 192.705 Y 157.328 I   0.248 J   0.969
G1 X 192.434 Y 156.346
G2 X 192.415 Y 156.351 I   0.267 J   0.964
G1 X 192.125 Y 155.375
G2 X 192.107 Y 155.380 I   0.285 J   0.959
G1 X 191.799 Y 154.412
G2 X 191.781 Y 154.418 I   0.303 J   0.953
G1 X 191.455 Y 153.455
G2 X 191.437 Y 153.462 I   0.321 J   0.947
G1 X 191.092 Y 152.505
G2 X 191.075 Y 152.512 I   0.339 J   0.941
G1 X 190.712 Y 151.562
G2 X 190.694 Y 151.569 I   0.357 J   0.934
G1 X 190.313 Y 150.627
G2 X 190.296 Y 150.634 I   0.375 J   0.927
G1 X 189.898 Y 149.702
G2 X 189.880 Y 149.710 I   0.392 J   0.920
G1 X 189.465 Y 148.785
G2 X 189.448 Y 148.793 I   0.410 J   0.912
G1 X 189.015 Y 147.876
G2 X 188.997 Y 147.884 I   0.427 J   0.904
G1 X 188.547 Y 146.976
G2 X 188.530 Y 146.985 I   0.444 J   0.896
G1 X 188.062 Y 146.086
G2 X 188.045 Y 146.095 I   0.462 J   0.887
G1 X 187.561 Y 145.207
G2 X 187.544 Y 145.216 I   0.479 J   0.878
G1 X 187.043 Y 144.338
G2 X 187.027 Y 144.348 I   0.495 J   0.869
G1 X 186.509 Y 143.480
G2 X 186.493 Y 143.490 I   0.512 J   0.859
G1 X 185.959 Y 142.632
G2 X 185.942 Y 142.642 I   0.528 J   0.849
G1 X 185.392 Y 141.794
G2 X 185.376 Y 141.805 I   0.545 J   0.839
G1 X 184.811 Y 140.972
G2 X 184.795 Y 140.983 I   0.561 J   0.828
G1 X 184.215 Y 140.161
G2 X 184.199 Y 140.172 I   0.577 J   0.817
G1 X 183.603 Y 139.361
G2 X 183.587 Y 139.373 I   0.593 J   0.806
G1 X 182.975 Y 138.574
G2 X 182.960 Y 138.586 I   0.608 J   0.794
G1 X 182.332 Y 137.799
G2 X 182.317 Y 137.812 I   0.623 J   0.782
G1 X 181.626 Y 136.981
G2 X 181.610 Y 136.995 I   0.639 J   0.769
G1 X 180.903 Y 136.179
G2 X 180.887 Y 136.193 I   0.655 J   0.756
G1 X 180.163 Y 135.392
G2 X 180.147 Y 135.407 I   0.671 J   0.742
G1 X 179.406 Y 134.621
G2 X 179.391 Y 134.636 I   0.686 J   0.727
G1 X 178.633 Y 133.867
G2 X 178.618 Y 133.882 I   0.702 J   0.713
G1 X 177.848 Y 133.131
G2 X 177.833 Y 133.147 I   0.717 J   0.698
G1 X 177.047 Y 132.413
G2 X 177.032 Y 132.429 I   0.731 J   0.682
G1 X 176.231 Y 131.712
G2 X 176.217 Y 131.728 I   0.745 J   0.667
G1 X 175.400 Y 131.028
G2 X 175.386 Y 131.044 I   0.759 J   0.651
G1 X 174.555 Y 130.362
G2 X 174.541 Y 130.379 I   0.773 J   0.634
G1 X 173.699 Y 129.717
G2 X 173.686 Y 129.734 I   0.787 J   0.618
G1 X 172.829 Y 129.091
G2 X 172.817 Y 129.108 I   0.800 J   0.601
G1 X 171.946 Y 128.483
G2 X 171.934 Y 128.501 I   0.812 J   0.583
G1 X 171.051 Y 127.895
G2 X 171.039 Y 127.913 I   0.825 J   0.566
G1 X 170.143 Y 127.326
G2 X 170.131 Y 127.344 I   0.837 J   0.548
G1 X 169.226 Y 126.778
G2 X 169.215 Y 126.797 I   0.848 J   0.530
G1 X 168.298 Y 126.251
G2 X 168.287 Y 126.269 I   0.859 J   0.511
G1 X 167.358 Y 125.743
G2 X 167.348 Y 125.762 I   0.870 J   0.493
G1 X 166.408 Y 125.257
G2 X 166.398 Y 125.276 I   0.881 J   0.474
G1 X 165.447 Y 124.791
G2 X 165.437 Y 124.810 I   0.891 J   0.455
G1 X 164.480 Y 124.347
G2 X 164.470 Y 124.366 I   0.900 J   0.435
G1 X 163.503 Y 123.924
G2 X 163.494 Y 123.944 I   0.910 J   0.416
G1 X 162.517 Y 123.523
G2 X 162.509 Y 123.543 I   0.918 J   0.396
G1 X 161.523 Y 123.143
G2 X 161.515 Y 123.164 I   0.927 J   0.376
G1 X 160.520 Y 122.786
G2 X 160.513 Y 122.806 I   0.935 J   0.355
G1 X 159.513 Y 122.451
G2 X 159.506 Y 122.471 I   0.942 J   0.335
G1 X 158.499 Y 122.138
G2 X 158.492 Y 122.159 I   0.949 J   0.314
G1 X 157.478 Y 121.847
G2 X 157.472 Y 121.868 I   0.956 J   0.294
G1 X 156.451 Y 121.579
G2 X 156.445 Y 121.600 I   0.962 J   0.273
G1 X 155.418 Y 121.333
G2 X 155.413 Y 121.355 I   0.968 J   0.251
G1 X 154.383 Y 121.111
G2 X 154.378 Y 121.132 I   0.973 J   0.230
G1 X 153.342 Y 120.911
G2 X 153.338 Y 120.933 I   0.978 J   0.209
G1 X 152.298 Y 120.734
G2 X 152.294 Y 120.756 I   0.982 J   0.187
G1 X 151.250 Y 120.581
G2 X 151.247 Y 120.602 I   0.986 J   0.166
G1 X 150.199 Y 120.450
G2 X 150.196 Y 120.471 I   0.990 J   0.144
G1 X 149.184 Y 120.346
G2 X 149.182 Y 120.367 I   0.992 J   0.123
G1 X 148.167 Y 120.264
G2 X 148.166 Y 120.285 I   0.995 J   0.102
G1 X 147.149 Y 120.203
G2 X 147.148 Y 120.224 I   0.997 J   0.080
G1 X 143.789 Y 120.024
G2 X 143.789 Y 120.143 I   0.998 J   0.059
G1 X 140.430 Y 120.343
G2 X 140.432 Y 120.364 I   0.998 J  -0.059
G1 X 139.416 Y 120.446
G2 X 139.417 Y 120.467 I   0.997 J  -0.080
G1 X 138.403 Y 120.570
G2 X 138.405 Y 120.591 I   0.995 J  -0.102
G1 X 137.393 Y 120.716
G2 X 137.396 Y 120.738 I   0.992 J  -0.123
G1 X 136.349 Y 120.890
G2 X 136.352 Y 120.912 I   0.990 J  -0.144
G1 X 135.308 Y 121.087
G2 X 135.312 Y 121.109 I   0.986 J  -0.166
G1 X 134.272 Y 121.307
G2 X 134.276 Y 121.329 I   0.982 J  -0.187
G1 X 133.241 Y 121.550
G2 X 133.245 Y 121.571 I   0.978 J  -0.209
G1 X 132.215 Y 121.815
G2 X 132.220 Y 121.836 I   0.973 J  -0.230
G1 X 131.193 Y 122.103
G2 X 131.199 Y 122.124 I   0.968 J  -0.251
G1 X 130.178 Y 122.413
G2 X 130.184 Y 122.434 I   0.962 J  -0.273
G1 X 129.170 Y 122.746
G2 X 129.177 Y 122.766 I   0.956 J  -0.294
G1 X 128.170 Y 123.100
G2 X 128.177 Y 123.121 I   0.949 J  -0.314
G1 X 127.177 Y 123.476
G2 X 127.185 Y 123.496 I   0.942 J  -0.335
G1 X 126.190 Y 123.875
G2 X 126.198 Y 123.895 I   0.935 J  -0.355
G1 X 125.212 Y 124.295
G2 X 125.221 Y 124.315 I   0.927 J  -0.376
G1 X 124.244 Y 124.736
G2 X 124.253 Y 124.756 I   0.918 J  -0.396
G1 X 123.285 Y 125.198
G2 X 123.294 Y 125.217 I   0.910 J  -0.416
G1 X 122.337 Y 125.680
G2 X 122.346 Y 125.700 I   0.900 J  -0.435
G1 X 121.396 Y 126.185
G2 X 121.406 Y 126.204 I   0.891 J  -0.455
G1 X 120.466 Y 126.710
G2 X 120.476 Y 126.729 I   0.881 J  -0.474
G1 X 119.547 Y 127.255
G2 X 119.558 Y 127.274 I   0.870 J  -0.493
G1 X 118.641 Y 127.820
G2 X 118.652 Y 127.838 I   0.859 J  -0.511
G1 X 117.747 Y 128.403
G2 X 117.759 Y 128.421 I   0.848 J  -0.530
G1 X 116.863 Y 129.008
G2 X 116.875 Y 129.026 I   0.837 J  -0.548
G1 X 115.991 Y 129.632
G2 X 116.004 Y 129.650 I   0.825 J  -0.566
G1 X 115.134 Y 130.275
G2 X 115.146 Y 130.292 I   0.812 J  -0.583
G1 X 114.290 Y 130.936
G2 X 114.303 Y 130.953 I   0.800 J  -0.601
G1 X 113.460 Y 131.614
G2 X 113.474 Y 131.631 I   0.787 J  -0.618
G1 X 112.642 Y 132.313
G2 X 114.415 Y 131.679 I   0.773 J  -0.634
F150
G1 Z   3.000
G0 Z  15.000 
M9 M5

(* SHAPE Nr: 5 *)
G0 X 179.746 Y 107.807
M3 M8
G0 Z   3.000 
G1 Z  -1.500
F400
G3 X 178.038 Y 108.514 I  -1.000 J   0.000
F150
G1 Z  -3.000
F400
G2 X 180.867 Y 108.514 I   1.414 J   0.000
G2 X 178.038 Y 108.514 I  -1.414 J   0.000
G2 X 179.746 Y 107.807 I   0.707 J  -0.707
F150
G1 Z   3.000
G0 Z  15.000 
M9 M5

(* SHAPE Nr: 6 *)
G0 X 209.746 Y 160.097
M3 M8
G0 Z   3.000 
G1 Z  -1.500
F400
G3 X 208.038 Y 160.805 I  -1.000 J   0.000
F150
G1 Z  -3.000
F400
G2 X 210.867 Y 160.805 I   1.414 J   0.000
G2 X 208.038 Y 160.805 I  -1.414 J   0.000
G2 X 209.746 Y 160.097 I   0.707 J  -0.707
F150
G1 Z   3.000
G0 Z  15.000 
M9 M5

(* SHAPE Nr: 7 *)
G0 X 199.901 Y 209.593
M3 M8
G0 Z   3.000 
G1 Z  -1.500
F400
G3 X 198.194 Y 210.300 I  -1.000 J   0.000
F150
G1 Z  -3.000
F400
G2 X 201.022 Y 210.300 I   1.414 J   0.000
G2 X 198.194 Y 210.300 I  -1.414 J   0.000
G2 X 199.901 Y 209.593 I   0.707 J  -0.707
F150
G1 Z   3.000
G0 Z  15.000 
M9 M5

(* SHAPE Nr: 8 *)
G0 X 266.954 Y 163.321
M3 M8
G0 Z   3.000 
G1 Z  -1.500
F400
G3 X 265.247 Y 164.028 I  -1.000 J   0.000
F150
G1 Z  -3.000
F400
G2 X 269.489 Y 165.442 I   2.121 J   0.707
G2 X 265.247 Y 164.028 I  -2.121 J  -0.707
G2 X 266.954 Y 163.321 I   0.707 J  -0.707
F150
G1 Z   3.000
G0 Z  15.000 
M9 M5

(* SHAPE Nr: 9 *)
G0 X 232.755 Y 238.737
M3 M8
G0 Z   3.000 
G1 Z  -1.500
F400
G3 X 231.048 Y 239.444 I  -1.000 J   0.000
F150
G1 Z  -3.000
F400
G2 X 235.291 Y 240.858 I   2.121 J   0.707
G2 X 231.048 Y 239.444 I  -2.121 J  -0.707
G2 X 232.755 Y 238.737 I   0.707 J  -0.707
F150
G1 Z   3.000
G0 Z  15.000 
M9 M5

(* SHAPE Nr: 10 *)
G0 X 174.031 Y 270.236
M3 M8
G0 Z   3.000 
G1 Z  -1.500
F400
G3 X 172.324 Y 270.943 I  -1.000 J   0.000
F150
G1 Z  -3.000
F400
G2 X 176.567 Y 272.357 I   2.121 J   0.707
G2 X 172.324 Y 270.943 I  -2.121 J  -0.707
G2 X 174.031 Y 270.236 I   0.707 J  -0.707
F150
G1 Z   3.000
G0 Z  15.000 
M9 M5

(* SHAPE Nr: 11 *)
G0 X 215.896 Y  50.224
M3 M8
G0 Z   3.000 
G1 Z  -1.500
F400
G3 X 214.189 Y  50.931 I  -1.000 J   0.000
F150
G1 Z  -3.000
F400
G2 X 218.432 Y  52.345 I   2.121 J   0.707
G2 X 214.189 Y  50.931 I  -2.121 J  -0.707
G2 X 215.896 Y  50.224 I   0.707 J  -0.707
F150
G1 Z   3.000
G0 Z  15.000 
M9 M5

(* SHAPE Nr: 12 *)
G0 X 198.165 Y 268.916
M3 M8
G0 Z   3.000 
G1 Z  -1.500
F400
G3 X 196.458 Y 269.623 I  -1.000 J   0.000
F150
G1 Z  -3.000
F400
G2 X 200.701 Y 271.037 I   2.121 J   0.707
G2 X 196.458 Y 269.623 I  -2.121 J  -0.707
G2 X 198.165 Y 268.916 I   0.707 J  -0.707
F150
G1 Z   3.000
G0 Z  15.000 
M9 M5

(* SHAPE Nr: 13 *)
G0 X 261.482 Y 215.855
M3 M8
G0 Z   3.000 
G1 Z  -1.500
F400
G3 X 259.775 Y 216.562 I  -1.000 J   0.000
F150
G1 Z  -3.000
F400
G2 X 264.018 Y 217.977 I   2.121 J   0.707
G2 X 259.775 Y 216.562 I  -2.121 J  -0.707
G2 X 261.482 Y 215.855 I   0.707 J  -0.707
F150
G1 Z   3.000
G0 Z  15.000 
M9 M5

(* SHAPE Nr: 14 *)
G0 X 273.277 Y 122.413
M3 M8
G0 Z   3.000 
G1 Z  -1.500
F400
G3 X 271.570 Y 123.120 I  -1.000 J   0.000
F150
G1 Z  -3.000
F400
G2 X 275.812 Y 124.534 I   2.121 J   0.707
G2 X 271.570 Y 123.120 I  -2.121 J  -0.707
G2 X 273.277 Y 122.413 I   0.707 J  -0.707
F150
G1 Z   3.000
G0 Z  15.000 
M9 M5

(* SHAPE Nr: 15 *)
G0 X 200.156 Y  22.618
M3 M8
G0 Z   3.000 
G1 Z  -1.500
F400
G3 X 198.449 Y  23.325 I  -1.000 J   0.000
F150
G1 Z  -3.000
F400
G2 X 202.691 Y  24.739 I   2.121 J   0.707
G2 X 198.449 Y  23.325 I  -2.121 J  -0.707
G2 X 200.156 Y  22.618 I   0.707 J  -0.707
F150
G1 Z   3.000
G0 Z  15.000 
M9 M5

(* SHAPE Nr: 16 *)
G0 X 110.411 Y 107.807
M3 M8
G0 Z   3.000 
G1 Z  -1.500
F400
G3 X 108.704 Y 108.514 I  -1.000 J   0.000
F150
G1 Z  -3.000
F400
G2 X 111.532 Y 108.514 I   1.414 J   0.000
G2 X 108.704 Y 108.514 I  -1.414 J   0.000
G2 X 110.411 Y 107.807 I   0.707 J  -0.707
F150
G1 Z   3.000
G0 Z  15.000 
M9 M5

(* SHAPE Nr: 17 *)
G0 X  80.411 Y 160.097
M3 M8
G0 Z   3.000 
G1 Z  -1.500
F400
G3 X  78.704 Y 160.805 I  -1.000 J   0.000
F150
G1 Z  -3.000
F400
G2 X  81.532 Y 160.805 I   1.414 J   0.000
G2 X  78.704 Y 160.805 I  -1.414 J   0.000
G2 X  80.411 Y 160.097 I   0.707 J  -0.707
F150
G1 Z   3.000
G0 Z  15.000 
M9 M5

(* SHAPE Nr: 18 *)
G0 X  90.255 Y 209.593
M3 M8
G0 Z   3.000 
G1 Z  -1.500
F400
G3 X  88.548 Y 210.300 I  -1.000 J   0.000
F150
G1 Z  -3.000
F400
G2 X  91.377 Y 210.300 I   1.414 J   0.000
G2 X  88.548 Y 210.300 I  -1.414 J   0.000
G2 X  90.255 Y 209.593 I   0.707 J  -0.707
F150
G1 Z   3.000
G0 Z  15.000 
M9 M5

(* SHAPE Nr: 19 *)
G0 X 145.080 Y 232.303
M3 M8
G0 Z   3.000 
G1 Z  -1.500
F400
G3 X 143.373 Y 233.010 I  -1.000 J   0.000
F150
G1 Z  -3.000
F400
G2 X 146.201 Y 233.010 I   1.414 J   0.000
G2 X 143.373 Y 233.010 I  -1.414 J   0.000
G2 X 145.080 Y 232.303 I   0.707 J  -0.707
F150
G1 Z   3.000
G0 Z  15.000 
M9 M5

(* SHAPE Nr: 20 *)
G0 X  21.788 Y 163.321
M3 M8
G0 Z   3.000 
G1 Z  -1.500
F400
G3 X  20.081 Y 164.028 I  -1.000 J   0.000
F150
G1 Z  -3.000
F400
G2 X  24.324 Y 165.442 I   2.121 J   0.707
G2 X  20.081 Y 164.028 I  -2.121 J  -0.707
G2 X  21.788 Y 163.321 I   0.707 J  -0.707
F150
G1 Z   3.000
G0 Z  15.000 
M9 M5

(* SHAPE Nr: 21 *)
G0 X  55.987 Y 238.737
M3 M8
G0 Z   3.000 
G1 Z  -1.500
F400
G3 X  54.280 Y 239.444 I  -1.000 J   0.000
F150
G1 Z  -3.000
F400
G2 X  58.522 Y 240.858 I   2.121 J   0.707
G2 X  54.280 Y 239.444 I  -2.121 J  -0.707
G2 X  55.987 Y 238.737 I   0.707 J  -0.707
F150
G1 Z   3.000
G0 Z  15.000 
M9 M5

(* SHAPE Nr: 22 *)
G0 X 114.711 Y 270.236
M3 M8
G0 Z   3.000 
G1 Z  -1.500
F400
G3 X 113.004 Y 270.943 I  -1.000 J   0.000
F150
G1 Z  -3.000
F400
G2 X 117.246 Y 272.357 I   2.121 J   0.707
G2 X 113.004 Y 270.943 I  -2.121 J  -0.707
G2 X 114.711 Y 270.236 I   0.707 J  -0.707
F150
G1 Z   3.000
G0 Z  15.000 
M9 M5

(* SHAPE Nr: 23 *)
G0 X  72.846 Y  50.224
M3 M8
G0 Z   3.000 
G1 Z  -1.500
F400
G3 X  71.139 Y  50.931 I  -1.000 J   0.000
F150
G1 Z  -3.000
F400
G2 X  75.381 Y  52.345 I   2.121 J   0.707
G2 X  71.139 Y  50.931 I  -2.121 J  -0.707
G2 X  72.846 Y  50.224 I   0.707 J  -0.707
F150
G1 Z   3.000
G0 Z  15.000 
M9 M5

(* SHAPE Nr: 24 *)
G0 X  90.577 Y 268.916
M3 M8
G0 Z   3.000 
G1 Z  -1.500
F400
G3 X  88.870 Y 269.623 I  -1.000 J   0.000
F150
G1 Z  -3.000
F400
G2 X  93.112 Y 271.037 I   2.121 J   0.707
G2 X  88.870 Y 269.623 I  -2.121 J  -0.707
G2 X  90.577 Y 268.916 I   0.707 J  -0.707
F150
G1 Z   3.000
G0 Z  15.000 
M9 M5

(* SHAPE Nr: 25 *)
G0 X  27.260 Y 215.855
M3 M8
G0 Z   3.000 
G1 Z  -1.500
F400
G3 X  25.553 Y 216.562 I  -1.000 J   0.000
F150
G1 Z  -3.000
F400
G2 X  29.795 Y 217.977 I   2.121 J   0.707
G2 X  25.553 Y 216.562 I  -2.121 J  -0.707
G2 X  27.260 Y 215.855 I   0.707 J  -0.707
F150
G1 Z   3.000
G0 Z  15.000 
M9 M5

(* SHAPE Nr: 26 *)
G0 X  15.465 Y 122.413
M3 M8
G0 Z   3.000 
G1 Z  -1.500
F400
G3 X  13.758 Y 123.120 I  -1.000 J   0.000
F150
G1 Z  -3.000
F400
G2 X  18.001 Y 124.534 I   2.121 J   0.707
G2 X  13.758 Y 123.120 I  -2.121 J  -0.707
G2 X  15.465 Y 122.413 I   0.707 J  -0.707
F150
G1 Z   3.000
G0 Z  15.000 
M9 M5

(* SHAPE Nr: 27 *)
G0 X  88.586 Y  22.618
M3 M8
G0 Z   3.000 
G1 Z  -1.500
F400
G3 X  86.879 Y  23.325 I  -1.000 J   0.000
F150
G1 Z  -3.000
F400
G2 X  91.122 Y  24.739 I   2.121 J   0.707
G2 X  86.879 Y  23.325 I  -2.121 J  -0.707
G2 X  88.586 Y  22.618 I   0.707 J  -0.707
F150
G1 Z   3.000
G0 Z  15.000 
M9 M5

(* SHAPE Nr: 28 *)
G0 X 286.311 Y 120.094
M3 M8
G0 Z   3.000 
G1 Z  -1.500
F400
G2 X 286.224 Y 119.686 I  -1.000 J  -0.000
F150
G1 Z  -3.000
F400
G3 X 292.118 Y 118.960 I   4.550 J  12.645
F150
G1 Z  -1.500
F400
G2 X 291.181 Y 117.936 I  -1.000 J  -0.026
F150
G1 Z  -3.000
F400
G1 X 292.440 Y  97.976
G3 X 293.312 Y 100.034 I   0.436 J   1.029
G1 X 292.053 Y 120.004
F150
G1 Z  -1.500
F400
G2 X 293.111 Y 119.106 I   0.063 J  -0.998
F150
G1 Z  -3.000
F400
G3 X 298.168 Y 121.120 I  -2.336 J  13.224
F150
G1 Z  -1.500
F400
G2 X 297.814 Y 119.778 I  -0.873 J  -0.487
F150
G1 Z  -3.000
F400
G1 X 308.201 Y 102.677
G3 X 308.018 Y 104.905 I  -0.092 J   1.114
G1 X 297.630 Y 122.007
F150
G1 Z  -1.500
F400
G2 X 298.984 Y 121.703 I   0.519 J  -0.855
F150
G1 Z  -3.000
F400
G3 X 302.528 Y 125.835 I  -8.209 J  10.628
F150
G1 Z  -1.500
F400
G2 X 302.837 Y 124.482 I  -0.548 J  -0.837
F150
G1 Z  -3.000
F400
G1 X 319.978 Y 114.159
G3 X 318.780 Y 116.047 I  -0.599 J   0.944
G1 X 301.640 Y 126.371
F150
G1 Z  -1.500
F400
G2 X 302.980 Y 126.730 I   0.857 J  -0.516
F150
G1 Z  -3.000
F400
G3 X 304.200 Y 132.035 I -12.205 J   5.601
F150
G1 Z  -1.500
F400
G2 X 305.102 Y 130.980 I  -0.096 J  -0.995
F150
G1 Z  -3.000
F400
G1 X 325.076 Y 129.796
G3 X 323.139 Y 130.913 I  -0.969 J   0.558
G1 X 303.165 Y 132.097
F150
G1 Z  -1.500
F400
G2 X 304.185 Y 133.038 I   0.998 J  -0.059
F150
G1 Z  -3.000
F400
G3 X 302.803 Y 138.303 I -13.411 J  -0.707
F150
G1 Z  -1.500
F400
G2 X 304.091 Y 137.788 I   0.377 J  -0.926
F150
G1 Z  -3.000
F400
G1 X 322.331 Y 146.014
G3 X 320.097 Y 146.103 I  -1.117 J   0.045
G1 X 301.857 Y 137.877
F150
G1 Z  -1.500
F400
G2 X 302.323 Y 139.184 I   0.912 J   0.411
F150
G1 Z  -3.000
F400
G3 X 298.654 Y 143.205 I -11.549 J  -6.853
F150
G1 Z  -1.500
F400
G2 X 300.035 Y 143.347 I   0.764 J  -0.645
F150
G1 Z  -3.000
F400
G1 X 312.370 Y 159.102
G3 X 310.349 Y 158.143 I  -1.010 J  -0.479
G1 X 298.014 Y 142.389
F150
G1 Z  -1.500
F400
G2 X 297.821 Y 143.763 I   0.616 J   0.787
F150
G1 Z  -3.000
F400
G3 X 292.704 Y 145.620 I  -7.046 J -11.432
F150
G1 Z  -1.500
F400
G2 X 293.861 Y 146.387 I   0.976 J  -0.217
F150
G1 Z  -3.000
F400
G1 X 297.470 Y 166.065
G3 X 295.904 Y 165.844 I  -0.672 J  -0.893
G3 X 288.965 Y 166.186 I  -5.130 J -33.513
G2 X 288.876 Y 168.141 I   0.976 J   1.024
G1 X 283.342 Y 250.725
G2 X 289.296 Y 255.081 I   5.056 J  -0.663
G2 X 308.107 Y 253.860 I   1.478 J-122.750
G2 X 311.198 Y 247.178 I  -1.657 J  -4.822
G1 X 306.839 Y 222.669
G2 X 306.837 Y 222.669 I   0.175 J   0.985
G3 X 308.181 Y 224.456 I   0.672 J   0.893
G2 X 308.184 Y 224.455 I  -0.183 J  -0.983
G1 X 312.806 Y 248.916
G2 X 319.643 Y 251.647 I   4.727 J  -1.911
G2 X 362.554 Y 231.917 I -28.869 J-119.316
G2 X 362.189 Y 224.564 I  -3.706 J  -3.502
G1 X 346.949 Y 204.880
G2 X 346.947 Y 204.882 I   0.612 J   0.791
G3 X 348.967 Y 205.840 I   1.010 J   0.479
G2 X 348.969 Y 205.839 I  -0.619 J  -0.786
G1 X 364.421 Y 225.356
G2 X 371.744 Y 224.600 I   3.300 J  -3.888
G2 X 400.588 Y 187.201 I -80.970 J -92.270
G2 X 396.850 Y 180.858 I  -4.909 J  -1.380
G1 X 374.213 Y 170.502
G2 X 374.212 Y 170.505 I   0.909 J   0.416
G3 X 376.446 Y 170.415 I   1.117 J  -0.045
G2 X 376.447 Y 170.413 I  -0.913 J  -0.409
G1 X 399.195 Y 180.524
G2 X 405.330 Y 176.454 I   1.117 J  -4.975
G2 X 413.510 Y 129.938 I-114.555 J -44.123
G2 X 407.254 Y 126.056 I  -4.988 J   1.057
G1 X 382.397 Y 127.395
G2 X 382.397 Y 127.398 I   0.999 J  -0.054
G3 X 384.334 Y 126.281 I   0.969 J  -0.558
G2 X 384.334 Y 126.279 I  -0.998 J   0.062
G1 X 409.176 Y 124.672
G2 X 412.720 Y 118.218 I  -1.321 J  -4.925
G2 X 398.366 Y  73.222 I-121.945 J  14.113
G2 X 391.023 Y  72.689 I  -3.927 J   3.252
G1 X 369.629 Y  85.417
G2 X 369.631 Y  85.419 I   0.859 J  -0.511
G3 X 370.828 Y  83.531 I   0.599 J  -0.944
G2 X 370.827 Y  83.528 I  -0.855 J   0.518
G1 X 392.082 Y  70.570
G2 X 392.224 Y  63.209 I  -3.456 J  -3.749
G2 X 358.619 Y  30.023 I-101.450 J  69.122
G2 X 351.868 Y  32.960 I  -1.968 J   4.704
G1 X 338.830 Y  54.166
G2 X 338.832 Y  54.168 I   0.524 J  -0.852
G3 X 339.016 Y  51.939 I   0.092 J  -1.114
G2 X 339.013 Y  51.938 I  -0.517 J   0.856
G1 X 351.822 Y  30.592
G2 X 348.530 Y  24.006 I  -4.802 J  -1.715
G2 X 303.358 Y  10.218 I -57.755 J 108.324
G2 X 298.742 Y  15.954 I   0.441 J   5.080
G1 X 297.042 Y  40.790
G2 X 297.044 Y  40.790 I   0.068 J  -0.998
G3 X 296.172 Y  38.731 I  -0.436 J  -1.029
G2 X 296.169 Y  38.731 I  -0.060 J   0.998
G1 X 297.602 Y  13.878
G2 X 291.628 Y   9.574 I  -5.049 J   0.711
G2 X 244.605 Y  18.584 I  -0.854 J 122.756
G2 X 243.219 Y  25.815 I   2.772 J   4.280
G2 X 243.812 Y  24.902 I  -0.408 J  -0.913
F150
G1 Z   3.000
G0 Z  15.000 
M9 M5

(* SHAPE Nr: 30 *)
G0 X 182.817 Y 279.983
M3 M8
G0 Z   3.000 
G1 Z  -3.000
F400
G2 X 182.817 Y 279.983 I  -1.000 J  -0.000
G2 X 186.752 Y 273.701 I  -1.000 J  -5.000
G1 X 184.378 Y 232.010
F150
G1 Z  -1.500
F400
G3 X 185.058 Y 233.791 I   0.057 J   0.998
F150
G1 Z  -3.000
F400
G1 X 187.215 Y 236.503
F150
G1 Z  -1.500
F400
G3 X 186.650 Y 236.719 I  -0.623 J  -0.783
F150
G1 Z  -3.000
F400
G1 X 188.653 Y 271.897
G2 X 206.152 Y 276.938 I   9.927 J  -1.567
G1 X 213.731 Y 269.826
F150
G1 Z  -1.500
F400
G2 X 212.317 Y 269.781 I  -0.729 J   0.684
F150
G1 Z  -3.000
F400
G3 X 215.144 Y 269.871 I   1.414 J   0.045
F150
G1 Z  -1.500
F400
G2 X 215.189 Y 268.457 I  -0.684 J  -0.729
F150
G1 Z  -3.000
F400
G1 X 253.901 Y 232.129
G2 X 252.553 Y 224.907 I  -4.151 J  -2.962
G1 X 214.070 Y 186.889
F150
G1 Z  -1.500
F400
G3 X 215.775 Y 187.699 I   0.711 J   0.703
F150
G1 Z  -3.000
F400
G1 X 218.969 Y 188.043
F150
G1 Z  -1.500
F400
G3 X 218.686 Y 188.639 I  -0.994 J  -0.107
F150
G1 Z  -3.000
F400
G1 X 255.580 Y 225.086
G2 X 271.944 Y 217.043 I   6.316 J  -7.817
G1 X 273.730 Y 193.934
F150
G1 Z  -1.500
F400
G2 X 272.656 Y 194.854 I  -0.077 J   0.997
F150
G1 Z  -3.000
F400
G3 X 274.804 Y 193.014 I   1.074 J  -0.920
F150
G1 Z  -1.500
F400
G2 X 273.884 Y 191.940 I  -0.997 J  -0.077
F150
G1 Z  -3.000
F400
G1 X 277.883 Y 140.199
G2 X 271.951 Y 135.786 I  -5.062 J   0.612
G1 X 203.125 Y 133.991
F150
G1 Z  -1.500
F400
G3 X 204.965 Y 133.476 I   1.000 J   0.026
F150
G1 Z  -3.000
F400
G1 X 207.955 Y 131.553
F150
G1 Z  -1.500
F400
G3 X 208.114 Y 132.120 I  -0.841 J   0.541
F150
G1 Z  -3.000
F400
G1 X 274.430 Y 133.850
G2 X 281.580 Y 117.601 I  -0.739 J -10.023
G1 X 266.458 Y  93.929
F150
G1 Z  -1.500
F400
G2 X 266.154 Y  95.310 I   0.538 J   0.843
F150
G1 Z  -3.000
F400
G3 X 266.763 Y  92.548 I   0.304 J  -1.381
F150
G1 Z  -1.500
F400
G2 X 265.382 Y  92.244 I  -0.843 J   0.538
F150
G1 Z  -3.000
F400
G1 X 245.668 Y  61.382
G2 X 237.441 Y  57.564 I  -7.889 J   6.226
F150
G1 Z  -1.500
F400
G2 X 238.271 Y  58.616 I   0.998 J   0.066
F150
G1 Z  -3.000
F400
G3 X 236.747 Y  56.237 I  -0.819 J  -1.153
F150
G1 Z  -1.500
F400
G2 X 235.536 Y  56.895 I  -0.260 J   0.966
F150
G1 Z  -3.000
F400
G3 X 231.845 Y  54.123 I   4.028 J  -9.207
G3 X 209.530 Y  19.480 I  69.289 J -69.140
G2 X 192.505 Y  18.035 I  -8.960 J   4.552
G1 X 159.917 Y  53.793
F150
G1 Z  -1.500
F400
G2 X 161.086 Y  53.923 I   0.674 J  -0.739
F150
G1 Z  -3.000
F400
G1 X 171.468 Y  72.131
F150
G1 Z  -1.500
F400
G3 X 170.163 Y  71.849 I  -0.495 J  -0.869
F150
G1 Z  -3.000
F400
G1 X 154.781 Y  83.012
F150
G1 Z  -1.500
F400
G2 X 156.178 Y  83.234 I   0.809 J  -0.587
F150
G1 Z  -3.000
F400
G3 X 153.781 Y  82.012 I  -1.397 J  -0.222
F150
G1 Z  -1.500
F400
G2 X 152.781 Y  83.012 I   0.000 J   1.000
F150
G1 Z  -3.000
F400
G1 X 143.785 Y  83.012
G1 X 134.789 Y  83.012
F150
G1 Z  -1.500
F400
G2 X 135.789 Y  84.012 I   1.000 J   0.000
F150
G1 Z  -3.000
F400
G3 X 134.567 Y  81.615 I  -1.000 J  -1.000
F150
G1 Z  -1.500
F400
G2 X 133.171 Y  81.837 I  -0.587 J   0.809
F150
G1 Z  -3.000
F400
G1 X 117.788 Y  70.675
F150
G1 Z  -1.500
F400
G3 X 119.093 Y  70.393 I   0.809 J   0.587
F150
G1 Z  -3.000
F400
G1 X 129.475 Y  52.186
F150
G1 Z  -1.500
F400
G2 X 128.306 Y  52.315 I  -0.495 J   0.869
F150
G1 Z  -3.000
F400
G1 X  95.718 Y  16.557
G2 X  79.317 Y  21.345 I  -6.717 J   7.475
G3 X  56.299 Y  55.524 I -90.879 J -36.362
G3 X  52.132 Y  57.510 I  -6.293 J  -7.836
F150
G1 Z  -1.500
F400
G2 X  53.343 Y  58.168 I   0.951 J  -0.308
F150
G1 Z  -3.000
F400
G3 X  50.964 Y  56.644 I  -1.225 J  -0.706
F150
G1 Z  -1.500
F400
G2 X  50.134 Y  57.696 I   0.167 J   0.986
F150
G1 Z  -3.000
F400
G2 X  42.826 Y  63.067 I   1.658 J   9.912
G1 X  23.112 Y  93.929
F150
G1 Z  -1.500
F400
G2 X  24.493 Y  93.625 I   0.538 J  -0.843
F150
G1 Z  -3.000
F400
G3 X  21.731 Y  94.233 I  -1.381 J   0.304
F150
G1 Z  -1.500
F400
G2 X  22.035 Y  95.615 I   0.843 J   0.538
F150
G1 Z  -3.000
F400
G1 X   6.914 Y 119.287
G2 X  17.140 Y 133.798 I   8.966 J   4.541
G1 X  83.456 Y 132.068
F150
G1 Z  -1.500
F400
G3 X  83.298 Y 132.635 I  -1.000 J   0.026
F150
G1 Z  -3.000
F400
G1 X  86.287 Y 134.558
F150
G1 Z  -1.500
F400
G3 X  84.447 Y 134.043 I  -0.841 J  -0.541
F150
G1 Z  -3.000
F400
G1 X  15.620 Y 135.838
G2 X  11.842 Y 142.193 I   1.130 J   4.972
G1 X  15.841 Y 193.934
F150
G1 Z  -1.500
F400
G2 X  16.761 Y 192.860 I  -0.077 J  -0.997
F150
G1 Z  -3.000
F400
G3 X  14.921 Y 195.008 I  -0.920 J   1.074
F150
G1 Z  -1.500
F400
G2 X  15.995 Y 195.928 I   0.997 J  -0.077
F150
G1 Z  -3.000
F400
G1 X  17.781 Y 219.037
G2 X  35.413 Y 223.681 I   9.893 J  -1.768
G1 X  72.307 Y 187.233
F150
G1 Z  -1.500
F400
G3 X  72.590 Y 187.829 I  -0.711 J   0.703
F150
G1 Z  -3.000
F400
G1 X  75.784 Y 187.485
F150
G1 Z  -1.500
F400
G3 X  74.078 Y 188.295 I  -0.994 J   0.107
F150
G1 Z  -3.000
F400
G1 X  35.594 Y 226.313
G2 X  37.127 Y 233.498 I   4.225 J   2.854
G1 X  75.840 Y 269.826
F150
G1 Z  -1.500
F400
G2 X  75.795 Y 268.412 I  -0.729 J  -0.684
F150
G1 Z  -3.000
F400
G3 X  75.885 Y 271.239 I   0.045 J   1.414
F150
G1 Z  -1.500
F400
G2 X  77.298 Y 271.194 I   0.684 J  -0.729
F150
G1 Z  -3.000
F400
G1 X  84.877 Y 278.307
G2 X 101.032 Y 269.900 I   6.114 J  -7.976
G1 X 103.035 Y 234.722
F150
G1 Z  -1.500
F400
G3 X 103.600 Y 234.938 I  -0.057 J   0.998
F150
G1 Z  -3.000
F400
G1 X 105.758 Y 232.226
F150
G1 Z  -1.500
F400
G3 X 105.079 Y 234.007 I  -0.623 J   0.783
F150
G1 Z  -3.000
F400
G1 X 102.705 Y 275.697
G2 X 108.753 Y 279.983 I   5.049 J  -0.714
G1 X 182.817 Y 279.986
F150
G1 Z   3.000
G0 Z  15.000 
M9 M5

(* SHAPE Nr: 31 *)
G0 X 239.440 Y  57.624
M3 M8
G0 Z   3.000 
G1 Z  -3.000
F400
G3 X 239.433 Y  57.737 I  -1.000 J   0.000
G2 X 239.667 Y  57.737 I   0.131 J -10.049
G2 X 239.671 Y  57.648 I  -0.996 J  -0.089
F150
G1 Z   3.000
G0 Z  15.000 
M9 M5

(* SHAPE Nr: 33 *)
G0 X  51.899 Y  57.648
M3 M8
G0 Z   3.000 
G1 Z  -3.000
F400
G2 X  51.895 Y  57.559 I  -1.000 J  -0.000
G2 X  52.125 Y  57.512 I  -1.889 J  -9.871
G3 X  52.131 Y  57.624 I  -0.994 J   0.112
F150
G1 Z   3.000
G0 Z  15.000 
M9 M5

(*** LAYER: 0 ***)

(* SHAPE Nr: 29 *)
G0 X 286.315 Y 120.102
M3 M8
G0 Z   3.000 
G1 Z  -1.500
F400
G2 X 284.907 Y 119.189 I  -1.000 J   0.000
F150
G1 Z  -3.000
F400
G1 X 242.404 Y  23.989
G3 X 243.812 Y  24.902 I   0.408 J   0.913
F150
G1 Z   3.000
G0 Z  15.000 
M9 M5

(* SHAPE Nr: 32 *)
G0 X 181.258 Y 210.506
M3 M8
G0 Z   3.000 
G1 Z  -1.500
F400
G2 X 180.991 Y 209.826 I  -1.000 J   0.000
F150
G1 Z  -3.000
F400
G1 X 181.046 Y 209.774
G3 X 181.313 Y 210.455 I  -0.733 J   0.680
F150
G1 Z   3.000
G0 Z  15.000 
M9 M5

(* SHAPE Nr: 34 *)
G0 X 110.257 Y 210.455
M3 M8
G0 Z   3.000 
G1 Z  -1.500
F400
G3 X 109.990 Y 211.135 I  -1.000 J   0.000
F150
G1 Z  -3.000
F400
G1 X 110.045 Y 211.186
G2 X 110.313 Y 210.506 I  -0.733 J  -0.680
F150
G1 Z   3.000
G0 Z  15.000 
M9 M5
G0 X   0.000 Y   0.000
M2 (Program end)